HW2_instructions/LUTs/dreamy.CUBE
#Created by: Adobe Photoshop Export Color Lookup Plugin
TITLE "dreamy.png"
#LUT size
LUT_3D_SIZE 8
#data domain
#LUT data points
DOMAIN_MIN 0.000000 0.000000 0.000000
DOMAIN_MAX 0.903226 0.903226 0.903226
0.409973 0.409973 0.409973
0.499939 0.396149 0.475952
0.589874 0.382324 0.541901
0.679840 0.368469 0.607849
0.769867 0.354645 0.673859
0.859802 0.340820 0.739807
0.949768 0.326996 0.805786
1.000000 0.352875 0.850372
0.478394 0.489685 0.457397
0.499939 0.432465 0.396149
0.589874 0.382324 0.445099
0.679840 0.368469 0.518829
0.769867 0.354645 0.589844
0.859802 0.340820 0.657196
0.949768 0.326996 0.723083
1.000000 0.352875 0.776764
0.546783 0.569366 0.504822
0.578766 0.561951 0.443665
0.589874 0.454926 0.382324
0.679840 0.368469 0.394623
0.769867 0.354645 0.480255
0.859802 0.340820 0.556976
0.949768 0.326996 0.627899
1.000000 0.352875 0.696350
0.615204 0.649109 0.552277
0.650146 0.653503 0.521088
0.674225 0.598541 0.398438
0.679840 0.477417 0.368469
0.769867 0.365387 0.354645
0.859802 0.340820 0.429779
0.949768 0.326996 0.515381
1.000000 0.352875 0.603912
0.683624 0.728851 0.599701
0.715912 0.729095 0.597900
0.747620 0.713959 0.477356
0.769867 0.622070 0.354645
0.769867 0.499908 0.354645
0.859802 0.388336 0.340820
0.949768 0.326996 0.379150
1.000000 0.352875 0.487793
0.752045 0.808563 0.647125
0.784332 0.808563 0.647125
0.822113 0.812927 0.555115
0.842651 0.754761 0.432587
0.859802 0.644531 0.340820
0.859802 0.522400 0.340820
0.949768 0.411224 0.326996
1.000000 0.352875 0.366455
0.820465 0.888275 0.694580
0.852753 0.888275 0.694580
0.890289 0.897064 0.632446
0.916412 0.865936 0.510986
0.938538 0.786987 0.386780
0.949768 0.667114 0.326996
0.949768 0.544861 0.326996
1.000000 0.460632 0.352875
0.888855 0.967957 0.741974
0.921112 0.967957 0.741974
0.954742 0.972778 0.708923
0.990723 0.966583 0.588989
1.000000 0.901398 0.477570
1.000000 0.801788 0.375519
1.000000 0.688141 0.352875
1.000000 0.579285 0.352875
0.396149 0.461884 0.499939
0.465729 0.432404 0.494873
0.580017 0.420532 0.584778
0.676880 0.389984 0.666443
0.769135 0.359253 0.740814
0.859802 0.340820 0.808990
0.949768 0.326996 0.875122
1.000000 0.352875 0.912323
0.397186 0.498901 0.449768
0.486115 0.486115 0.486115
0.576050 0.472290 0.552063
0.666016 0.458466 0.618042
0.756012 0.444611 0.684021
0.845947 0.430786 0.749969
0.935944 0.416962 0.815948
1.000000 0.429016 0.867981
0.455994 0.577789 0.446960
0.554504 0.565796 0.533508
0.576050 0.508606 0.472290
0.666016 0.458466 0.521240
0.756012 0.444611 0.595062
0.845947 0.430786 0.665924
0.935944 0.416962 0.733337
1.000000 0.429016 0.792297
0.562500 0.652802 0.525391
0.622925 0.645508 0.580963
0.654907 0.638092 0.519806
0.666016 0.531067 0.458466
0.756012 0.444611 0.470764
0.845947 0.430786 0.556366
0.935944 0.416962 0.633118
1.000000 0.429016 0.704895
0.651337 0.728851 0.599701
0.691376 0.725281 0.628418
0.726288 0.729675 0.597382
0.750397 0.674713 0.474609
0.756012 0.553558 0.444611
0.845947 0.441528 0.430786
0.935944 0.416962 0.505768
1.000000 0.429016 0.601746
0.719757 0.808563 0.647125
0.759735 0.804962 0.675812
0.792023 0.805206 0.674011
0.823730 0.790070 0.553467
0.845947 0.698181 0.430786
0.845947 0.576019 0.430786
0.935944 0.464478 0.416962
1.000000 0.429016 0.476837
0.788177 0.888275 0.694580
0.828186 0.884705 0.723267
0.860474 0.884705 0.723267
0.898254 0.889069 0.631256
0.918823 0.830780 0.508575
0.935944 0.720673 0.416962
0.935944 0.598541 0.416962
1.000000 0.506378 0.429016
0.856567 0.967957 0.741974
0.896576 0.964386 0.770691
0.928833 0.964386 0.770691
0.966400 0.973175 0.708557
0.992523 0.942047 0.587158
1.000000 0.856506 0.477570
1.000000 0.740723 0.429016
1.000000 0.628784 0.429016
0.382324 0.513763 0.589874
0.416748 0.425842 0.585175
0.521484 0.454865 0.579773
0.635956 0.462372 0.666870
0.750122 0.431152 0.759674
0.851685 0.400574 0.847046
0.943848 0.369904 0.922974
1.000000 0.375244 0.965668
0.383514 0.588684 0.577301
0.472290 0.537994 0.576050
0.541840 0.508545 0.570984
0.656158 0.496674 0.660919
0.753082 0.466095 0.742645
0.845245 0.435394 0.816925
0.935944 0.416962 0.885132
1.000000 0.429016 0.931427
0.384399 0.587799 0.489532
0.473328 0.575012 0.525879
0.562225 0.562225 0.562225
0.652191 0.548401 0.628204
0.742188 0.534546 0.694183
0.832123 0.520721 0.760132
0.922119 0.506897 0.826111
1.000000 0.505127 0.885590
0.405396 0.670868 0.445953
0.532135 0.653931 0.523102
0.630646 0.641937 0.609650
0.652191 0.584717 0.548401
0.742188 0.534546 0.597351
0.832123 0.520721 0.671173
0.922119 0.506897 0.742096
1.000000 0.505127 0.806824
0.502106 0.745667 0.484039
0.638763 0.728943 0.601654
0.699097 0.721710 0.657104
0.731079 0.714233 0.595886
0.742188 0.607178 0.534546
0.832123 0.520721 0.546783
0.922119 0.506897 0.632507
1.000000 0.505127 0.711121
0.614990 0.820435 0.562775
0.727448 0.804962 0.675812
0.767487 0.801392 0.704529
0.802399 0.805786 0.673492
0.826538 0.750763 0.550629
0.832123 0.629669 0.520721
0.922119 0.517639 0.506897
1.000000 0.505127 0.589813
0.715271 0.895630 0.641052
0.795898 0.884705 0.723267
0.835876 0.881104 0.751953
0.868164 0.881348 0.750153
0.899872 0.866211 0.629608
0.922119 0.774323 0.506897
0.922119 0.652161 0.506897
1.000000 0.550446 0.505127
0.808472 0.971161 0.718933
0.864319 0.964386 0.770691
0.904297 0.960815 0.799377
0.936584 0.960815 0.799377
0.974396 0.965118 0.707184
0.994934 0.906891 0.584686
1.000000 0.794739 0.505127
1.000000 0.678253 0.505127
0.368469 0.565674 0.679840
0.383942 0.465027 0.677826
0.491852 0.456268 0.667877
0.577240 0.477295 0.664673
0.695526 0.499756 0.749634
0.803955 0.473083 0.841644
0.920166 0.441742 0.934479
0.999451 0.437714 1.000000
0.368927 0.660309 0.679413
0.458466 0.589905 0.666016
0.492889 0.501984 0.661316
0.597626 0.531006 0.655914
0.712128 0.538513 0.743042
0.826233 0.507294 0.835785
0.927826 0.476715 0.923187
1.000000 0.466034 0.980591
0.371155 0.677155 0.624481
0.459656 0.664825 0.653442
0.548401 0.614136 0.652191
0.617981 0.584656 0.647125
0.732330 0.572815 0.737091
0.829193 0.542206 0.818756
0.921387 0.511505 0.893066
1.000000 0.505127 0.951538
0.371613 0.676727 0.529297
0.460541 0.663940 0.565674
0.549438 0.651154 0.602020
0.638367 0.638367 0.638367
0.728363 0.624512 0.704346
0.818298 0.610687 0.770294
0.908264 0.596863 0.836273
0.998199 0.583038 0.902222
0.362549 0.765137 0.468994
0.481567 0.747040 0.522125
0.608276 0.730103 0.599243
0.706787 0.718109 0.685791
0.728363 0.660858 0.624512
0.818298 0.610687 0.673431
0.908264 0.596863 0.747253
0.998199 0.583038 0.818085
0.442474 0.838715 0.467834
0.578217 0.821777 0.560150
0.714874 0.805054 0.677765
0.775208 0.797791 0.733246
0.807190 0.790314 0.671967
0.818298 0.683319 0.610687
0.908264 0.596863 0.622925
0.998199 0.583038 0.708618
0.548187 0.913513 0.521057
0.691132 0.896576 0.638916
0.803589 0.881104 0.751953
0.843628 0.877533 0.780670
0.878571 0.881927 0.749512
0.902679 0.826904 0.626770
0.908264 0.705811 0.596863
0.998199 0.593781 0.583038
0.663696 0.988251 0.599762
0.791382 0.971741 0.717163
0.872009 0.960815 0.799377
0.911987 0.957214 0.828064
0.944275 0.957458 0.826111
0.975983 0.942322 0.705719
0.998199 0.850433 0.583038
0.998199 0.728271 0.583038
0.354645 0.617615 0.769867
0.354645 0.513794 0.769867
0.423523 0.441711 0.760468
0.567230 0.496246 0.750214
0.633057 0.499756 0.749634
0.751251 0.522186 0.834503
0.861908 0.514954 0.923798
0.959259 0.500214 1.000000
0.354645 0.720001 0.769867
0.444611 0.641815 0.756012
0.460022 0.541199 0.753998
0.568024 0.532410 0.744049
0.653412 0.553436 0.740845
0.771637 0.575897 0.825745
0.880096 0.549255 0.917786
0.986298 0.528503 1.000000
0.357025 0.767487 0.744751
0.445068 0.736420 0.755585
0.534546 0.666046 0.742188
0.569000 0.578094 0.737518
0.673767 0.607117 0.732086
0.788208 0.614716 0.819153
0.902374 0.583405 0.911926
1.000000 0.556854 0.995453
0.358795 0.765686 0.670807
0.447296 0.753357 0.700684
0.535736 0.740997 0.729614
0.624512 0.690277 0.728363
0.694153 0.660797 0.723297
0.808380 0.649017 0.813202
0.905304 0.618408 0.894867
0.997498 0.587738 0.969177
0.358795 0.765686 0.569092
0.447754 0.752899 0.605469
0.536621 0.740112 0.641785
0.625549 0.727325 0.678162
0.714539 0.714539 0.714539
0.804474 0.700714 0.780487
0.894440 0.686890 0.846466
0.984375 0.673065 0.912415
0.346039 0.854584 0.507202
0.438690 0.841248 0.545135
0.557556 0.823151 0.598206
0.684326 0.806213 0.675323
0.782928 0.794220 0.761932
0.804474 0.737030 0.700714
0.894440 0.686890 0.749664
0.984375 0.673065 0.823486
0.400635 0.931824 0.481934
0.518463 0.914856 0.544006
0.654358 0.897919 0.636292
0.790924 0.881226 0.753815
0.851349 0.873932 0.809387
0.883331 0.866516 0.748230
0.894440 0.759491 0.686890
0.984375 0.673065 0.699127
0.485901 1.000000 0.499451
0.624298 0.989624 0.597198
0.767029 0.972717 0.714844
0.879669 0.957214 0.828064
0.919739 0.953644 0.856812
0.954651 0.958038 0.825775
0.978760 0.903015 0.702942
0.984375 0.781982 0.673065
0.340820 0.669495 0.859802
0.340820 0.565735 0.859802
0.390442 0.477112 0.853271
0.493073 0.462891 0.843292
0.626343 0.522186 0.834503
0.688782 0.522186 0.834503
0.807068 0.544647 0.919434
0.918549 0.562683 1.000000
0.340820 0.773254 0.859802
0.430786 0.693695 0.845947
0.430786 0.589905 0.845947
0.499664 0.517853 0.836578
0.643341 0.572357 0.826324
0.709167 0.575897 0.825745
0.827393 0.598328 0.910645
0.938019 0.591095 0.999908
0.342316 0.850494 0.858307
0.430786 0.796082 0.845947
0.520721 0.717926 0.832123
0.536133 0.617310 0.830109
0.644226 0.608582 0.820129
0.729523 0.629547 0.816956
0.847778 0.652008 0.901886
0.956207 0.625366 0.993896
0.344543 0.856079 0.792023
0.433167 0.843567 0.820831
0.521179 0.812531 0.831696
0.610687 0.742157 0.818298
0.645172 0.654205 0.813599
0.749908 0.683258 0.808197
0.864349 0.690857 0.895294
0.978485 0.659546 0.988037
0.346039 0.854584 0.710571
0.434967 0.841797 0.746948
0.523407 0.829468 0.776703
0.611877 0.817108 0.805695
0.700714 0.766418 0.804474
0.770264 0.736969 0.799408
0.884583 0.725098 0.889343
0.981415 0.694519 0.970978
0.346039 0.854584 0.608887
0.434967 0.841797 0.645233
0.523865 0.829010 0.681580
0.612793 0.816223 0.717926
0.701752 0.803436 0.754303
0.790649 0.790649 0.790649
0.880615 0.776825 0.856628
0.970551 0.763000 0.922577
0.333221 0.943512 0.546875
0.422180 0.930725 0.583344
0.514801 0.917389 0.621246
0.633698 0.899292 0.674347
0.760559 0.882355 0.751526
0.859070 0.870361 0.838074
0.880615 0.813141 0.776825
0.970551 0.763000 0.825775
0.383911 1.000000 0.517334
0.484711 1.000000 0.563599
0.594574 0.990967 0.620117
0.730469 0.974030 0.712402
0.867157 0.957306 0.830048
0.927460 0.950043 0.885498
0.959442 0.942627 0.824341
0.970551 0.835602 0.763000
0.326996 0.721405 0.949768
0.326996 0.617554 0.949768
0.357788 0.520142 0.945740
0.430298 0.457581 0.935699
0.573975 0.502716 0.925781
0.682068 0.544647 0.919434
0.744568 0.544647 0.919434
0.861237 0.571381 1.000000
0.326996 0.825256 0.949768
0.416962 0.745636 0.935944
0.416962 0.641876 0.935944
0.466583 0.553253 0.929413
0.569366 0.539093 0.919434
0.702484 0.598328 0.910645
0.764923 0.598328 0.910645
0.883087 0.620758 0.995544
0.327881 0.910492 0.948853
0.416962 0.849396 0.935944
0.506897 0.769867 0.922119
0.506897 0.666046 0.922119
0.575775 0.593964 0.912720
0.719482 0.648499 0.902466
0.785309 0.652008 0.901886
0.903503 0.674438 0.986755
0.330566 0.946198 0.912079
0.418457 0.926636 0.934448
0.506897 0.872253 0.922119
0.596863 0.794067 0.908264
0.612305 0.693390 0.906250
0.720367 0.684723 0.896271
0.805664 0.705688 0.893097
0.923889 0.728149 0.977997
0.332336 0.944397 0.838898
0.420685 0.932220 0.868042
0.509277 0.919739 0.897003
0.597321 0.888733 0.907837
0.686890 0.818329 0.894440
0.721313 0.730408 0.889740
0.826050 0.759430 0.884338
0.940430 0.767029 0.971375
0.333221 0.943512 0.750427
0.422180 0.930725 0.786713
0.511047 0.917938 0.823059
0.599548 0.905609 0.852844
0.688080 0.893250 0.881866
0.776825 0.842560 0.880615
0.846405 0.813080 0.875549
0.960693 0.801208 0.965454
0.333221 0.943512 0.648651
0.422180 0.930725 0.685028
0.511047 0.917938 0.721344
0.600006 0.905151 0.757721
0.688965 0.892365 0.794098
0.777863 0.879578 0.830444
0.866791 0.866791 0.866791
0.956726 0.852966 0.932739
0.352875 1.000000 0.594910
0.429016 1.000000 0.629059
0.505127 1.000000 0.661957
0.590942 0.993500 0.697388
0.709900 0.975403 0.750549
0.836670 0.958466 0.827637
0.935181 0.946472 0.914185
0.956726 0.889282 0.852966
0.352875 0.762695 1.000000
0.352875 0.670288 1.000000
0.363281 0.579498 1.000000
0.425751 0.511566 1.000000
0.509613 0.488251 1.000000
0.654938 0.550720 1.000000
0.738800 0.571381 1.000000
0.800018 0.571381 1.000000
0.352875 0.855133 1.000000
0.429016 0.790619 1.000000
0.429016 0.695557 1.000000
0.455780 0.606049 1.000000
0.518280 0.544281 1.000000
0.651367 0.580750 1.000000
0.758270 0.620758 0.995544
0.820679 0.620758 0.995544
0.352875 0.938385 1.000000
0.429016 0.885681 1.000000
0.505127 0.818542 1.000000
0.505127 0.719574 1.000000
0.548340 0.632812 1.000000
0.645477 0.615204 0.995544
0.778595 0.674438 0.986755
0.841034 0.674438 0.986755
0.352875 1.000000 0.996674
0.429016 0.964722 1.000000
0.505127 0.917480 1.000000
0.583038 0.845947 0.998199
0.583038 0.742065 0.998199
0.651917 0.670105 0.988831
0.795593 0.724609 0.978577
0.861420 0.728149 0.977997
0.352875 1.000000 0.931763
0.429016 1.000000 0.968353
0.505127 0.992645 1.000000
0.583038 0.948425 0.998199
0.673065 0.870209 0.984375
0.688416 0.769592 0.982361
0.796539 0.760925 0.972382
0.881775 0.781830 0.969208
0.352875 1.000000 0.866821
0.429016 1.000000 0.901581
0.505127 1.000000 0.937897
0.585419 0.995819 0.973083
0.673492 0.964752 0.983917
0.763000 0.894440 0.970551
0.797424 0.806519 0.965851
0.902161 0.835541 0.960449
0.352875 1.000000 0.779755
0.429016 1.000000 0.819183
0.505127 1.000000 0.859863
0.587219 0.994049 0.899200
0.675720 0.981689 0.928955
0.764191 0.969360 0.957977
0.852966 0.918671 0.956726
0.922516 0.889221 0.951660
0.352875 1.000000 0.687347
0.429016 1.000000 0.724121
0.505127 1.000000 0.760895
0.587219 0.994049 0.797485
0.676178 0.981262 0.833862
0.765076 0.968475 0.870209
0.854004 0.955688 0.906555
0.942902 0.942902 0.942902
