HW2_instructions/LUTs/dreamy.CUBE
#Created by: Adobe Photoshop Export Color Lookup Plugin
TITLE "dreamy.png"
#LUT size
LUT_3D_SIZE 5
#data domain
#LUT data points
DOMAIN_MIN 0.000000 0.000000 0.000000
DOMAIN_MAX 0.903226 0.903226 0.903226
0.409973 0.409973 0.409973
0.567383 0.385773 0.525391
0.724823 0.361572 0.640839
0.882294 0.337372 0.756317
1.000000 0.352875 0.850372
0.529663 0.549438 0.492950
0.567383 0.449310 0.385773
0.724823 0.361572 0.471466
0.882294 0.337372 0.600647
1.000000 0.352875 0.719421
0.649414 0.688965 0.575958
0.705353 0.675903 0.468903
0.724823 0.488647 0.361572
0.882294 0.337372 0.383148
1.000000 0.352875 0.548615
0.769165 0.828491 0.658997
0.830261 0.836182 0.604645
0.872467 0.740021 0.389832
0.882294 0.528015 0.337372
1.000000 0.369629 0.352875
0.888855 0.967957 0.741974
0.945251 0.968353 0.738770
1.000000 0.941315 0.528656
1.000000 0.769653 0.352875
1.000000 0.579285 0.352875
0.385773 0.500793 0.567383
0.507538 0.449249 0.558533
0.707550 0.428497 0.715912
0.877106 0.374939 0.858826
1.000000 0.359711 0.955750
0.387604 0.565552 0.479584
0.543182 0.543182 0.543182
0.700623 0.518982 0.658630
0.858093 0.494751 0.774078
1.000000 0.486084 0.881195
0.490570 0.703674 0.474762
0.662903 0.682678 0.626160
0.700623 0.582520 0.518982
0.858093 0.494751 0.604645
1.000000 0.486084 0.734375
0.677094 0.834930 0.612152
0.782654 0.822235 0.709198
0.838654 0.809204 0.602112
0.858093 0.621857 0.494751
1.000000 0.486084 0.529114
0.832336 0.967957 0.741974
0.902374 0.961700 0.792206
0.963470 0.969391 0.737854
1.000000 0.870514 0.528595
1.000000 0.665894 0.486084
0.361572 0.591614 0.724823
0.421844 0.437744 0.716614
0.605133 0.488525 0.707123
0.805511 0.501740 0.859589
0.984558 0.468933 1.000000
0.363647 0.722717 0.702820
0.518982 0.634003 0.700623
0.640778 0.582458 0.691772
0.840820 0.561737 0.849182
1.000000 0.518494 0.982483
0.365204 0.721161 0.549164
0.520782 0.698792 0.612793
0.676422 0.676422 0.676422
0.833893 0.652222 0.791901
0.991302 0.628021 0.907318
0.401978 0.866547 0.472992
0.623810 0.836945 0.608002
0.796173 0.815948 0.759430
0.833893 0.715790 0.652222
0.991302 0.628021 0.737915
0.571228 0.997406 0.539581
0.810303 0.968140 0.745361
0.915894 0.955444 0.842438
0.971832 0.942383 0.735352
0.991302 0.755127 0.628021
0.337372 0.682465 0.882294
0.364288 0.506348 0.878784
0.553284 0.490997 0.861328
0.702759 0.527832 0.855743
0.907196 0.571381 1.000000
0.338135 0.847931 0.881500
0.494751 0.724854 0.858093
0.555054 0.570953 0.849884
0.738373 0.621735 0.840393
0.938629 0.635040 0.992767
0.342041 0.877594 0.785400
0.496857 0.856018 0.836121
0.652222 0.767273 0.833893
0.774048 0.715729 0.825043
0.974030 0.694977 0.982391
0.342834 0.876831 0.618835
0.498413 0.854462 0.682434
0.654022 0.832062 0.746033
0.809692 0.809692 0.809692
0.967102 0.785492 0.925110
0.358459 1.000000 0.528076
0.535004 0.999786 0.606140
0.757050 0.970154 0.741241
0.929382 0.949158 0.892670
0.967102 0.849030 0.785492
0.352875 0.762695 1.000000
0.352875 0.600922 1.000000
0.457031 0.486328 1.000000
0.687500 0.566254 1.000000
0.800018 0.571381 1.000000
0.352875 0.922272 1.000000
0.486084 0.811554 1.000000
0.509491 0.644928 1.000000
0.686676 0.624329 0.994507
0.835968 0.661041 0.988953
0.352875 1.000000 0.964142
0.486084 0.968262 1.000000
0.628021 0.858093 0.991302
0.688324 0.704224 0.983093
0.871582 0.754944 0.973602
0.352875 1.000000 0.849121
0.486084 1.000000 0.911407
0.630096 0.989227 0.969330
0.785492 0.900513 0.967102
0.907257 0.848969 0.958252
0.352875 1.000000 0.687347
0.486084 1.000000 0.751709
0.631653 0.987640 0.815643
0.787323 0.965271 0.879303
0.942902 0.942902 0.942902
