HW2_instructions/LUTs/dreamy.CUBE
#Created by: Adobe Photoshop Export Color Lookup Plugin
TITLE "dreamy.png"
#LUT size
LUT_3D_SIZE 32
#data domain
DOMAIN_MIN 0.0 0.0 0.0
DOMAIN_MAX 1.0 1.0 1.0
#LUT data points
0.409973 0.409973 0.409973
0.432465 0.406494 0.426453
0.454926 0.403046 0.442932
0.477448 0.399597 0.459442
0.499939 0.396149 0.475952
0.522400 0.392670 0.492401
0.544891 0.389221 0.508911
0.567383 0.385773 0.525391
0.589874 0.382324 0.541901
0.612366 0.378845 0.558380
0.634827 0.375397 0.574860
0.657349 0.371948 0.591370
0.679840 0.368469 0.607849
0.702332 0.365021 0.624359
0.724823 0.361572 0.640839
0.747314 0.358124 0.657318
0.769867 0.354645 0.673859
0.792328 0.351196 0.690338
0.814819 0.347717 0.706818
0.837280 0.344269 0.723297
0.859802 0.340820 0.739807
0.882294 0.337372 0.756317
0.904755 0.333893 0.772766
0.927246 0.330444 0.789276
0.949768 0.326996 0.805786
0.972229 0.323547 0.822266
0.994720 0.320068 0.838745
1.000000 0.333862 0.845978
1.000000 0.352875 0.850372
1.000000 0.371918 0.854797
1.000000 0.390930 0.859192
1.000000 0.409973 0.863586
0.427063 0.429901 0.421814
0.432465 0.415588 0.406494
0.454926 0.403046 0.418701
0.477448 0.399597 0.437195
0.499939 0.396149 0.454926
0.522400 0.392670 0.471710
0.544891 0.389221 0.488220
0.567383 0.385773 0.504700
0.589874 0.382324 0.521210
0.612366 0.378845 0.537689
0.634827 0.375397 0.554138
0.657349 0.371948 0.570679
0.679840 0.368469 0.587097
0.702332 0.365021 0.603668
0.724823 0.361572 0.620178
0.747314 0.358124 0.636627
0.769867 0.354645 0.653198
0.792328 0.351196 0.669647
0.814819 0.347717 0.686188
0.837280 0.344269 0.702606
0.859802 0.340820 0.719025
0.882294 0.337372 0.735687
0.904755 0.333893 0.752136
0.927246 0.330444 0.768585
0.949768 0.326996 0.785095
0.972229 0.323547 0.801666
0.994720 0.320068 0.817993
1.000000 0.333862 0.826324
1.000000 0.352875 0.831909
1.000000 0.371918 0.837463
1.000000 0.390930 0.842987
1.000000 0.409973 0.848450
0.444153 0.449799 0.433685
0.452148 0.447937 0.418365
0.454926 0.421204 0.403046
0.477448 0.399597 0.406128
0.499939 0.396149 0.427582
0.522400 0.392670 0.446716
0.544891 0.389221 0.464447
0.567383 0.385773 0.482178
0.589874 0.382324 0.499878
0.612366 0.378845 0.517029
0.634827 0.375397 0.533539
0.657349 0.371948 0.550049
0.679840 0.368469 0.566559
0.702332 0.365021 0.583008
0.724823 0.361572 0.599518
0.747314 0.358124 0.615997
0.769867 0.354645 0.632507
0.792328 0.351196 0.648987
0.814819 0.347717 0.665436
0.837280 0.344269 0.682007
0.859802 0.340820 0.698517
0.882294 0.337372 0.714935
0.904755 0.333893 0.731506
0.927246 0.330444 0.748016
0.949768 0.326996 0.764435
0.972229 0.323547 0.780762
0.994720 0.320068 0.797394
1.000000 0.333862 0.806793
1.000000 0.352875 0.813721
1.000000 0.371918 0.820282
1.000000 0.390930 0.826752
1.000000 0.409973 0.833191
0.461273 0.469757 0.445557
0.470001 0.470856 0.437775
0.476013 0.457092 0.407104
0.477448 0.426819 0.399597
0.499939 0.398834 0.396149
0.522400 0.392670 0.414886
0.544891 0.389221 0.436310
0.567383 0.385773 0.456177
0.589874 0.382324 0.473938
0.612366 0.378845 0.491669
0.634827 0.375397 0.509369
0.657349 0.371948 0.527130
0.679840 0.368469 0.544830
0.702332 0.365021 0.562347
0.724823 0.361572 0.578857
0.747314 0.358124 0.595367
0.769867 0.354645 0.611816
0.792328 0.351196 0.628296
0.814819 0.347717 0.644775
0.837280 0.344269 0.661194
0.859802 0.340820 0.677856
0.882294 0.337372 0.694305
0.904755 0.333893 0.710754
0.927246 0.330444 0.727203
0.949768 0.326996 0.743744
0.972229 0.323547 0.760162
0.994720 0.320068 0.776642
1.000000 0.333862 0.786957
1.000000 0.352875 0.795074
1.000000 0.371918 0.802948
1.000000 0.390930 0.810547
1.000000 0.409973 0.818054
0.478394 0.489685 0.457397
0.486450 0.489746 0.456970
0.494385 0.485992 0.426849
0.499939 0.462982 0.396149
0.499939 0.432465 0.396149
0.522400 0.404572 0.392670
0.544891 0.389221 0.402252
0.567383 0.385773 0.423645
0.589874 0.382324 0.445099
0.612366 0.378845 0.465210
0.634827 0.375397 0.483398
0.657349 0.371948 0.501129
0.679840 0.368469 0.518829
0.702332 0.365021 0.536652
0.724823 0.361572 0.554382
0.747314 0.358124 0.572113
0.769867 0.354645 0.589844
0.792328 0.351196 0.607513
0.814819 0.347717 0.624146
0.837280 0.344269 0.640594
0.859802 0.340820 0.657196
0.882294 0.337372 0.673553
0.904755 0.333893 0.690125
0.927246 0.330444 0.706512
0.949768 0.326996 0.723083
0.972229 0.323547 0.739594
0.994720 0.320068 0.756042
1.000000 0.333862 0.767426
1.000000 0.352875 0.776764
1.000000 0.371918 0.785797
1.000000 0.390930 0.794495
1.000000 0.409973 0.802795
0.495453 0.509583 0.469238
0.503540 0.509583 0.469238
0.513000 0.510712 0.446259
0.518127 0.496124 0.415588
0.522400 0.468536 0.392670
0.522400 0.438049 0.392670
0.544891 0.410278 0.389221
0.567383 0.385773 0.389587
0.589874 0.382324 0.411041
0.612366 0.378845 0.432495
0.634827 0.375397 0.453857
0.657349 0.371948 0.474152
0.679840 0.368469 0.492981
0.702332 0.365021 0.510712
0.724823 0.361572 0.528381
0.747314 0.358124 0.546173
0.769867 0.354645 0.563873
0.792328 0.351196 0.581573
0.814819 0.347717 0.599274
0.837280 0.344269 0.617004
0.859802 0.340820 0.634766
0.882294 0.337372 0.652527
0.904755 0.333893 0.669495
0.927246 0.330444 0.685974
0.949768 0.326996 0.702393
0.972229 0.323547 0.718994
0.994720 0.320068 0.735291
1.000000 0.333862 0.747772
1.000000 0.352875 0.758423
1.000000 0.371918 0.768463
1.000000 0.390930 0.778290
1.000000 0.409973 0.787659
0.512573 0.529541 0.481110
0.520660 0.529541 0.481110
0.530029 0.531738 0.465607
0.536560 0.523926 0.435211
0.542114 0.504242 0.404175
0.544891 0.474243 0.389221
0.544891 0.443695 0.389221
0.567383 0.416016 0.385773
0.589874 0.387695 0.382324
0.612366 0.378845 0.398407
0.634827 0.375397 0.419800
0.657349 0.371948 0.441284
0.679840 0.368469 0.462646
0.702332 0.365021 0.483124
0.724823 0.361572 0.502502
0.747314 0.358124 0.520233
0.769867 0.354645 0.537933
0.792328 0.351196 0.555603
0.814819 0.347717 0.573395
0.837280 0.344269 0.591125
0.859802 0.340820 0.608795
0.882294 0.337372 0.626587
0.904755 0.333893 0.644257
0.927246 0.330444 0.662079
0.949768 0.326996 0.679749
0.972229 0.323547 0.697449
0.994720 0.320068 0.714722
1.000000 0.333862 0.728088
1.000000 0.352875 0.739960
1.000000 0.371918 0.751282
1.000000 0.390930 0.762238
1.000000 0.409973 0.772552
0.529663 0.549438 0.492950
0.537750 0.549438 0.492950
0.546143 0.550659 0.484680
0.555145 0.549072 0.454681
0.560303 0.534576 0.423981
0.566101 0.511078 0.392700
0.567383 0.479858 0.385773
0.567383 0.449310 0.385773
0.589874 0.421753 0.382324
0.612366 0.393341 0.378845
0.634827 0.375397 0.385712
0.657349 0.371948 0.407196
0.679840 0.368469 0.428589
0.702332 0.365021 0.450104
0.724823 0.361572 0.471466
0.747314 0.358124 0.492004
0.769867 0.354645 0.511780
0.792328 0.351196 0.529755
0.814819 0.347717 0.547394
0.837280 0.344269 0.565125
0.859802 0.340820 0.582947
0.882294 0.337372 0.600647
0.904755 0.333893 0.618347
0.927246 0.330444 0.636139
0.949768 0.326996 0.653900
0.972229 0.323547 0.671478
0.994720 0.320068 0.689178
1.000000 0.333862 0.704987
1.000000 0.352875 0.719421
1.000000 0.371918 0.733032
1.000000 0.390930 0.745880
1.000000 0.409973 0.757416
0.546783 0.569366 0.504822
0.554840 0.569366 0.504822
0.562897 0.569489 0.503906
0.573883 0.572693 0.474030
0.578766 0.561951 0.443665
0.584137 0.543488 0.412720
0.589874 0.515991 0.382324
0.589874 0.485504 0.382324
0.589874 0.454926 0.382324
0.612366 0.427521 0.378845
0.634827 0.399139 0.375397
0.657349 0.371948 0.373077
0.679840 0.368469 0.394623
0.702332 0.365021 0.415985
0.724823 0.361572 0.437317
0.747314 0.358124 0.458923
0.769867 0.354645 0.480255
0.792328 0.351196 0.501007
0.814819 0.347717 0.520599
0.837280 0.344269 0.539246
0.859802 0.340820 0.556976
0.882294 0.337372 0.574707
0.904755 0.333893 0.592438
0.927246 0.330444 0.610046
0.949768 0.326996 0.627899
0.972229 0.323547 0.645508
0.994720 0.320068 0.663330
1.000000 0.333862 0.680420
1.000000 0.352875 0.696350
1.000000 0.371918 0.711426
1.000000 0.390930 0.725800
1.000000 0.409973 0.739410
0.563904 0.589325 0.516693
0.571960 0.589325 0.516693
0.580048 0.589325 0.516693
0.590088 0.592621 0.493408
0.597412 0.587402 0.463043
0.602448 0.572845 0.432556
0.608154 0.551331 0.401276
0.612366 0.521667 0.378845
0.612366 0.491058 0.378845
0.612366 0.460541 0.378845
0.634827 0.433289 0.375397
0.657349 0.404846 0.371948
0.679840 0.376526 0.368469
0.702332 0.365021 0.381805
0.724823 0.361572 0.403351
0.747314 0.358124 0.424744
0.769867 0.354645 0.446198
0.792328 0.351196 0.467712
0.814819 0.347717 0.489014
0.837280 0.344269 0.509766
0.859802 0.340820 0.529480
0.882294 0.337372 0.548767
0.904755 0.333893 0.566376
0.927246 0.330444 0.584106
0.949768 0.326996 0.601898
0.972229 0.323547 0.619537
0.994720 0.320068 0.637299
1.000000 0.333862 0.655701
1.000000 0.352875 0.673126
1.000000 0.371918 0.689789
1.000000 0.390930 0.705414
1.000000 0.409973 0.720398
0.580963 0.609222 0.528503
0.589050 0.609222 0.528503
0.597107 0.609222 0.528503
0.605988 0.611481 0.512512
0.616028 0.611389 0.482452
0.620941 0.599915 0.452057
0.626282 0.582275 0.421173
0.631989 0.558319 0.390015
0.634827 0.527222 0.375397
0.634827 0.496674 0.375397
0.634827 0.466156 0.375397
0.657349 0.438904 0.371948
0.679840 0.410583 0.368469
0.702332 0.382141 0.365021
0.724823 0.361572 0.369202
0.747314 0.358124 0.390808
0.769867 0.354645 0.412231
0.792328 0.351196 0.433594
0.814819 0.347717 0.455017
0.837280 0.344269 0.476562
0.859802 0.340820 0.497803
0.882294 0.337372 0.518707
0.904755 0.333893 0.538361
0.927246 0.330444 0.558044
0.949768 0.326996 0.576050
0.972229 0.323547 0.593719
0.994720 0.320068 0.611450
1.000000 0.333862 0.630981
1.000000 0.352875 0.650055
1.000000 0.371918 0.668182
1.000000 0.390930 0.685211
1.000000 0.409973 0.701385
0.598083 0.629150 0.540405
0.606171 0.629150 0.540405
0.614227 0.629150 0.540405
0.622467 0.630371 0.531708
0.634857 0.634583 0.501678
0.639496 0.625427 0.471558
0.644714 0.611023 0.440857
0.650360 0.590912 0.409760
0.655975 0.564148 0.378571
0.657349 0.532898 0.371948
0.657349 0.502380 0.371948
0.657349 0.471802 0.371948
0.679840 0.444550 0.368469
0.702332 0.416412 0.365021
0.724823 0.388000 0.361572
0.747314 0.359741 0.358124
0.769867 0.354645 0.378174
0.792328 0.351196 0.399567
0.814819 0.347717 0.420807
0.837280 0.344269 0.442352
0.859802 0.340820 0.463837
0.882294 0.337372 0.485321
0.904755 0.333893 0.506561
0.927246 0.330444 0.527588
0.949768 0.326996 0.547302
0.972229 0.323547 0.566956
0.994720 0.320068 0.585419
1.000000 0.333862 0.606262
1.000000 0.352875 0.626984
1.000000 0.371918 0.646393
1.000000 0.390930 0.664825
1.000000 0.409973 0.682373
0.615204 0.649109 0.552277
0.623291 0.649109 0.552277
0.631317 0.649109 0.552277
0.639374 0.649261 0.550873
0.650146 0.653503 0.521088
0.658295 0.650024 0.490906
0.663177 0.637939 0.460480
0.668365 0.620789 0.429810
0.674225 0.598541 0.398438
0.679840 0.569000 0.368469
0.679840 0.538513 0.368469
0.679840 0.508026 0.368469
0.679840 0.477417 0.368469
0.702332 0.450500 0.365021
0.724823 0.422058 0.361572
0.747314 0.393768 0.358124
0.769867 0.365387 0.354645
0.792328 0.351196 0.365509
0.814819 0.347717 0.386932
0.837280 0.344269 0.408173
0.859802 0.340820 0.429779
0.882294 0.337372 0.451263
0.904755 0.333893 0.472565
0.927246 0.330444 0.493927
0.949768 0.326996 0.515381
0.972229 0.323547 0.536407
0.994720 0.320068 0.556274
1.000000 0.333862 0.580414
1.000000 0.352875 0.603912
1.000000 0.371918 0.624786
1.000000 0.390930 0.644623
1.000000 0.409973 0.663208
0.632294 0.669037 0.564117
0.640381 0.669037 0.564117
0.648438 0.669037 0.564117
0.656525 0.669037 0.564117
0.665894 0.672333 0.540436
0.676849 0.673431 0.510406
0.681915 0.663757 0.479858
0.687042 0.649261 0.449249
0.692474 0.629944 0.418304
0.698212 0.605560 0.386932
0.702332 0.574677 0.365021
0.702332 0.544067 0.365021
0.702332 0.513580 0.365021
0.702332 0.483032 0.365021
0.724823 0.456299 0.361572
0.747314 0.427856 0.358124
0.769867 0.399445 0.354645
0.792328 0.371124 0.351196
0.814819 0.347717 0.352722
0.837280 0.344269 0.374115
0.859802 0.340820 0.395691
0.882294 0.337372 0.416931
0.904755 0.333893 0.438568
0.927246 0.330444 0.459961
0.949768 0.326996 0.481323
0.972229 0.323547 0.502655
0.994720 0.320068 0.524139
1.000000 0.333862 0.551300
1.000000 0.352875 0.577057
1.000000 0.371918 0.601624
1.000000 0.390930 0.624237
1.000000 0.409973 0.644196
0.649414 0.688965 0.575958
0.657471 0.688965 0.575958
0.665527 0.688965 0.575958
0.673615 0.688965 0.575958
0.682343 0.691345 0.559448
0.694977 0.695618 0.529633
0.700317 0.688263 0.499451
0.705353 0.675903 0.468903
0.710693 0.659241 0.438019
0.716309 0.638062 0.406952
0.722260 0.612183 0.375458
0.724823 0.580261 0.361572
0.724823 0.549774 0.361572
0.724823 0.519165 0.361572
0.724823 0.488647 0.361572
0.747314 0.461975 0.358124
0.769867 0.433411 0.354645
0.792328 0.405273 0.351196
0.814819 0.376678 0.347717
0.837280 0.348480 0.344269
0.859802 0.340820 0.361481
0.882294 0.337372 0.383148
0.904755 0.333893 0.404419
0.927246 0.330444 0.425873
0.949768 0.326996 0.447266
0.972229 0.323547 0.468628
0.994720 0.320068 0.490204
1.000000 0.333862 0.519104
1.000000 0.352875 0.548615
1.000000 0.371918 0.576019
1.000000 0.390930 0.600433
1.000000 0.409973 0.623322
0.666504 0.708893 0.587830
0.674591 0.708893 0.587830
0.682648 0.708893 0.587830
0.690704 0.708893 0.587830
0.698944 0.710205 0.578644
0.710144 0.714386 0.549042
0.719055 0.712158 0.518829
0.724060 0.701782 0.488342
0.729340 0.687408 0.457581
0.734467 0.668457 0.426819
0.740295 0.645691 0.395599
0.746429 0.617279 0.363892
0.747314 0.585876 0.358124
0.747314 0.555298 0.358124
0.747314 0.524780 0.358124
0.747314 0.494293 0.358124
0.769867 0.467468 0.354645
0.792328 0.439301 0.351196
0.814819 0.410889 0.347717
0.837280 0.382660 0.344269
0.859802 0.354248 0.340820
0.882294 0.337372 0.348938
0.904755 0.333893 0.370270
0.927246 0.330444 0.391632
0.949768 0.326996 0.413208
0.972229 0.323547 0.434570
0.994720 0.320068 0.456116
1.000000 0.333862 0.486908
1.000000 0.352875 0.518280
1.000000 0.371918 0.547638
1.000000 0.390930 0.575165
1.000000 0.409973 0.600830
0.683624 0.728851 0.599701
0.691711 0.728851 0.599701
0.699768 0.728851 0.599701
0.707855 0.728851 0.599701
0.715912 0.729095 0.597900
0.726135 0.733459 0.567993
0.737854 0.735474 0.538086
0.742767 0.726776 0.507782
0.747620 0.713959 0.477356
0.753113 0.697693 0.446320
0.758362 0.677216 0.415649
0.764404 0.652985 0.384125
0.769867 0.622070 0.354645
0.769867 0.591553 0.354645
0.769867 0.561127 0.354645
0.769867 0.530518 0.354645
0.769867 0.499908 0.354645
0.792328 0.473419 0.351196
0.814819 0.445099 0.347717
0.837280 0.416840 0.344269
0.859802 0.388336 0.340820
0.882294 0.359985 0.337372
0.904755 0.333893 0.336121
0.927246 0.330444 0.357391
0.949768 0.326996 0.379150
0.972229 0.323547 0.400513
0.994720 0.320068 0.421844
1.000000 0.333862 0.454529
1.000000 0.352875 0.487793
1.000000 0.371918 0.519287
1.000000 0.390930 0.548553
1.000000 0.409973 0.575928
0.700745 0.748779 0.611542
0.708801 0.748779 0.611542
0.716888 0.748779 0.611542
0.724945 0.748779 0.611542
0.733032 0.748779 0.611542
0.742188 0.752228 0.587219
0.755005 0.756561 0.557373
0.761444 0.750916 0.527130
0.766235 0.739868 0.496826
0.771210 0.725220 0.466309
0.776886 0.707214 0.435089
0.782318 0.685181 0.404144
0.787964 0.659393 0.373016
0.792328 0.627655 0.351196
0.792328 0.597168 0.351196
0.792328 0.566589 0.351196
0.792328 0.536102 0.351196
0.792328 0.505524 0.351196
0.814819 0.479095 0.347717
0.837280 0.450684 0.344269
0.859802 0.422546 0.340820
0.882294 0.394043 0.337372
0.904755 0.365662 0.333893
0.927246 0.337433 0.330444
0.949768 0.326996 0.345093
0.972229 0.323547 0.366638
0.994720 0.320068 0.387756
1.000000 0.333862 0.421997
1.000000 0.352875 0.457611
1.000000 0.371918 0.490906
1.000000 0.390930 0.521942
1.000000 0.409973 0.550995
0.717865 0.768707 0.623444
0.725922 0.768707 0.623444
0.733978 0.768707 0.623444
0.742065 0.768707 0.623444
0.750122 0.768707 0.623444
0.758606 0.771027 0.606537
0.770203 0.775299 0.576813
0.780151 0.774445 0.546417
0.784882 0.764954 0.516235
0.789795 0.751923 0.485748
0.794922 0.735687 0.455139
0.800812 0.716217 0.423706
0.806396 0.692871 0.392731
0.812195 0.665253 0.361328
0.814819 0.633392 0.347717
0.814819 0.602814 0.347717
0.814819 0.572144 0.347717
0.814819 0.541809 0.347717
0.814819 0.511139 0.347717
0.837280 0.484985 0.344269
0.859802 0.456635 0.340820
0.882294 0.428101 0.337372
0.904755 0.399689 0.333893
0.927246 0.371521 0.330444
0.949768 0.343109 0.326996
0.972229 0.323547 0.332428
0.994720 0.320068 0.353668
1.000000 0.333862 0.389648
1.000000 0.352875 0.427277
1.000000 0.371918 0.462555
1.000000 0.390930 0.495178
1.000000 0.409973 0.526062
0.734924 0.788605 0.635254
0.743011 0.788605 0.635254
0.751068 0.788605 0.635254
0.759155 0.788605 0.635254
0.767181 0.788605 0.635254
0.775452 0.790039 0.625519
0.786072 0.794312 0.595825
0.798798 0.797363 0.565826
0.803467 0.789215 0.535675
0.808380 0.777802 0.505249
0.813446 0.763336 0.474701
0.818726 0.745422 0.443878
0.824219 0.724274 0.412811
0.829895 0.699646 0.381592
0.836456 0.670166 0.349609
0.837280 0.638794 0.344269
0.837280 0.608215 0.344269
0.837280 0.577789 0.344269
0.837280 0.547211 0.344269
0.837280 0.516754 0.344269
0.859802 0.490570 0.340820
0.882294 0.462280 0.337372
0.904755 0.433807 0.333893
0.927246 0.405640 0.330444
0.949768 0.377167 0.326996
0.972229 0.348877 0.323547
0.994720 0.320404 0.320068
1.000000 0.333862 0.357269
1.000000 0.352875 0.396942
1.000000 0.371918 0.433716
1.000000 0.390930 0.468414
1.000000 0.409973 0.501007
0.752045 0.808563 0.647125
0.760132 0.808563 0.647125
0.768158 0.808563 0.647125
0.776245 0.808563 0.647125
0.784332 0.808563 0.647125
0.792358 0.808838 0.644867
0.802094 0.813080 0.615112
0.815002 0.817505 0.585266
0.822113 0.812927 0.555115
0.826965 0.802917 0.524689
0.832001 0.789948 0.494171
0.837250 0.773895 0.463379
0.842651 0.754761 0.432587
0.848297 0.732422 0.401398
0.854126 0.706757 0.370056
0.859802 0.675079 0.340820
0.859802 0.644531 0.340820
0.859802 0.613861 0.340820
0.859802 0.583466 0.340820
0.859802 0.552917 0.340820
0.859802 0.522400 0.340820
0.882294 0.496338 0.337372
0.904755 0.468109 0.333893
0.927246 0.439728 0.330444
0.949768 0.411224 0.326996
0.972229 0.382935 0.323547
0.994720 0.354645 0.320068
1.000000 0.342957 0.333862
1.000000 0.352875 0.366455
1.000000 0.371918 0.405487
1.000000 0.390930 0.441925
1.000000 0.409973 0.475952
0.769165 0.828491 0.658997
0.777222 0.828491 0.658997
0.785278 0.828491 0.658997
0.793365 0.828491 0.658997
0.801422 0.828491 0.658997
0.809509 0.828491 0.658997
0.818604 0.832123 0.634186
0.830261 0.836182 0.604645
0.840759 0.836151 0.574524
0.845551 0.827454 0.544220
0.850525 0.815826 0.513733
0.855713 0.801392 0.483032
0.861084 0.784027 0.452179
0.866699 0.763428 0.420990
0.872467 0.740021 0.389832
0.878418 0.713470 0.358337
0.882294 0.680603 0.337372
0.882294 0.650146 0.337372
0.882294 0.619690 0.337372
0.882294 0.589081 0.337372
0.882294 0.558624 0.337372
0.882294 0.528015 0.337372
0.904755 0.502106 0.333893
0.927246 0.473663 0.330444
0.949768 0.445282 0.326996
0.972229 0.416992 0.323547
0.994720 0.388580 0.320068
1.000000 0.375488 0.333862
1.000000 0.369629 0.352875
1.000000 0.371918 0.377136
1.000000 0.390930 0.415161
1.000000 0.409973 0.450897
0.786224 0.848389 0.670837
0.794281 0.848389 0.670837
0.802368 0.848389 0.670837
0.810455 0.848389 0.670837
0.818512 0.848389 0.670837
0.826599 0.848389 0.670837
0.835022 0.850830 0.653503
0.846161 0.855194 0.623596
0.859772 0.859314 0.593567
0.864594 0.851715 0.563171
0.869049 0.840912 0.533173
0.874176 0.827911 0.502594
0.879517 0.812103 0.471741
0.885040 0.793488 0.440704
0.890778 0.771881 0.409546
0.895966 0.746948 0.378723
0.902039 0.718323 0.347137
0.904755 0.686371 0.333893
0.904755 0.655853 0.333893
0.904755 0.625305 0.333893
0.904755 0.594666 0.333893
0.904755 0.564148 0.333893
0.904755 0.533600 0.333893
0.927246 0.507751 0.330444
0.949768 0.479340 0.326996
0.972229 0.451050 0.323547
0.994720 0.422852 0.320068
1.000000 0.407684 0.333862
1.000000 0.399963 0.352875
1.000000 0.395233 0.371918
1.000000 0.393463 0.390930
1.000000 0.409973 0.425964
0.803345 0.868347 0.682709
0.811432 0.868347 0.682709
0.819489 0.868347 0.682709
0.827545 0.868347 0.682709
0.835632 0.868347 0.682709
0.843689 0.868347 0.682709
0.851959 0.869873 0.672577
0.861969 0.873901 0.643066
0.875153 0.878448 0.612823
0.883179 0.875122 0.582642
0.887604 0.865540 0.552734
0.892700 0.853790 0.522125
0.897980 0.839417 0.491364
0.903442 0.822327 0.460388
0.909119 0.802490 0.429199
0.914246 0.779541 0.398590
0.920288 0.753845 0.366913
0.926544 0.723114 0.335175
0.927246 0.691803 0.330444
0.927246 0.661346 0.330444
0.927246 0.630737 0.330444
0.927246 0.600281 0.330444
0.927246 0.569702 0.330444
0.927246 0.539246 0.330444
0.949768 0.513397 0.326996
0.972229 0.485077 0.323547
0.994720 0.456787 0.320068
1.000000 0.440063 0.333862
1.000000 0.430450 0.352875
1.000000 0.423737 0.371918
1.000000 0.419922 0.390930
1.000000 0.419037 0.409973
0.820465 0.888275 0.694580
0.828552 0.888275 0.694580
0.836578 0.888275 0.694580
0.844666 0.888275 0.694580
0.852753 0.888275 0.694580
0.860809 0.888275 0.694580
0.868805 0.888611 0.691803
0.878357 0.892944 0.662079
0.890289 0.897064 0.632446
0.901764 0.898193 0.602142
0.906647 0.890137 0.571869
0.911163 0.879059 0.541779
0.916412 0.865936 0.510986
0.921844 0.850220 0.479980
0.926758 0.831604 0.449677
0.932556 0.810638 0.418274
0.938538 0.786987 0.386780
0.943848 0.760590 0.356079
0.949768 0.728088 0.326996
0.949768 0.697540 0.326996
0.949768 0.667114 0.326996
0.949768 0.636566 0.326996
0.949768 0.605988 0.326996
0.949768 0.575439 0.326996
0.949768 0.544861 0.326996
0.972229 0.519287 0.323547
0.994720 0.491028 0.320068
1.000000 0.472748 0.333862
1.000000 0.460632 0.352875
1.000000 0.452271 0.371918
1.000000 0.446686 0.390930
1.000000 0.443970 0.409973
0.837524 0.908173 0.706390
0.845612 0.908173 0.706390
0.853699 0.908173 0.706390
0.861755 0.908173 0.706390
0.869781 0.908173 0.706390
0.877869 0.908173 0.706390
0.885956 0.908173 0.706390
0.894684 0.911621 0.681305
0.906219 0.916107 0.651337
0.920441 0.920807 0.621063
0.925140 0.913666 0.591400
0.930176 0.904114 0.560791
0.934814 0.891785 0.530609
0.940216 0.877411 0.499725
0.945099 0.860199 0.469299
0.950836 0.840790 0.438049
0.956757 0.818939 0.406555
0.962036 0.794189 0.375916
0.968292 0.766388 0.344116
0.972229 0.733551 0.323547
0.972229 0.703156 0.323547
0.972229 0.672607 0.323547
0.972229 0.642181 0.323547
0.972229 0.611786 0.323547
0.972229 0.581207 0.323547
0.972229 0.550476 0.323547
0.994720 0.524963 0.320068
1.000000 0.504944 0.333862
1.000000 0.490967 0.352875
1.000000 0.480621 0.371918
1.000000 0.473297 0.390930
1.000000 0.469025 0.409973
0.854645 0.928131 0.718262
0.862762 0.928131 0.718262
0.870789 0.928131 0.718262
0.878906 0.928131 0.718262
0.886932 0.928131 0.718262
0.895020 0.928131 0.718262
0.903076 0.928131 0.718262
0.911499 0.930664 0.700409
0.921844 0.934723 0.670868
0.935242 0.939392 0.640625
0.943695 0.936859 0.610870
0.948700 0.928375 0.580322
0.953857 0.917542 0.549713
0.958588 0.903900 0.519440
0.964111 0.888519 0.488464
0.969116 0.870148 0.457855
0.975006 0.849792 0.426453
0.980225 0.826538 0.395752
0.986481 0.801208 0.363922
0.991913 0.771393 0.333099
0.994720 0.739258 0.320068
0.994720 0.708771 0.320068
0.994720 0.678162 0.320068
0.994720 0.647827 0.320068
0.994720 0.617218 0.320068
0.994720 0.586884 0.320068
0.994720 0.556091 0.320068
1.000000 0.537476 0.333862
1.000000 0.521606 0.352875
1.000000 0.509003 0.371918
1.000000 0.500061 0.390930
1.000000 0.493805 0.409973
0.871765 0.948059 0.730164
0.879852 0.948059 0.730164
0.887878 0.948059 0.730164
0.895966 0.948059 0.730164
0.904053 0.948059 0.730164
0.912109 0.948059 0.730164
0.920197 0.948059 0.730164
0.928223 0.949371 0.719727
0.938171 0.953766 0.690002
0.950317 0.957947 0.660248
0.962738 0.960144 0.629883
0.967194 0.952026 0.599915
0.972321 0.942413 0.569366
0.976990 0.929840 0.539093
0.982483 0.915527 0.508057
0.987396 0.898560 0.477753
0.993256 0.879608 0.446320
0.998444 0.857849 0.415588
