HW2_instructions/LUTs/Hue Shift.CUBE
#Created by: Adobe Photoshop Export Color Lookup Plugin
TITLE "Hue"
#LUT size
LUT_3D_SIZE 16
#data domain
DOMAIN_MIN 0.0 0.0 0.0
DOMAIN_MAX 1.0 1.0 1.0
#LUT data points
0.000000 0.000000 0.000000
0.066681 0.000000 0.064453
0.133331 0.000000 0.128876
0.200012 0.000000 0.193329
0.266663 0.000000 0.257751
0.333344 0.000000 0.322205
0.399994 0.000000 0.386627
0.466675 0.000000 0.451080
0.533325 0.000000 0.515472
0.600006 0.000000 0.579926
0.666656 0.000000 0.644348
0.733337 0.000000 0.708801
0.799988 0.000000 0.773224
0.866669 0.000000 0.837677
0.933319 0.000000 0.902100
1.000000 0.000000 0.966553
0.064453 0.066681 0.000000
0.066681 0.002228 0.000000
0.133331 0.000000 0.062195
0.200012 0.000000 0.126617
0.266663 0.000000 0.191071
0.333344 0.000000 0.255554
0.399994 0.000000 0.319916
0.466675 0.000000 0.384399
0.533325 0.000000 0.448822
0.600006 0.000000 0.513275
0.666656 0.000000 0.577637
0.733337 0.000000 0.642212
0.799988 0.000000 0.706635
0.866669 0.000000 0.771027
0.933319 0.000000 0.835327
1.000000 0.000000 0.899902
0.128876 0.133331 0.000000
0.133331 0.071136 0.000000
0.133331 0.004456 0.000000
0.200012 0.000000 0.060028
0.266663 0.000000 0.124420
0.333344 0.000000 0.188904
0.399994 0.000000 0.253326
0.466675 0.000000 0.317749
0.533325 0.000000 0.382141
0.600006 0.000000 0.446625
0.666656 0.000000 0.511047
0.733337 0.000000 0.575439
0.799988 0.000000 0.639832
0.866669 0.000000 0.704376
0.933319 0.000000 0.768799
1.000000 0.000000 0.833252
0.193329 0.200012 0.000000
0.200012 0.139984 0.000000
0.200012 0.073395 0.000000
0.200012 0.006683 0.000000
0.266663 0.000000 0.057739
0.333344 0.000000 0.122162
0.399994 0.000000 0.186615
0.466675 0.000000 0.251007
0.533325 0.000000 0.315491
0.600006 0.000000 0.379974
0.666656 0.000000 0.444336
0.733337 0.000000 0.508820
0.799988 0.000000 0.573242
0.866669 0.000000 0.637726
0.933319 0.000000 0.702026
1.000000 0.000000 0.766602
0.257751 0.266663 0.000000
0.266663 0.208923 0.000000
0.266663 0.142242 0.000000
0.266663 0.075592 0.000000
0.266663 0.008911 0.000000
0.333344 0.000000 0.055511
0.399994 0.000000 0.119934
0.466675 0.000000 0.184448
0.533325 0.000000 0.248810
0.600006 0.000000 0.313324
0.666656 0.000000 0.377747
0.733337 0.000000 0.442230
0.799988 0.000000 0.506622
0.866669 0.000000 0.571075
0.933319 0.000000 0.635498
1.000000 0.000000 0.699951
0.322205 0.333344 0.000000
0.333344 0.277832 0.000000
0.333344 0.211182 0.000000
0.333344 0.144440 0.000000
0.333344 0.077789 0.000000
0.333344 0.011139 0.000000
0.399994 0.000000 0.053314
0.466675 0.000000 0.117706
0.533325 0.000000 0.182159
0.600006 0.000000 0.246521
0.666656 0.000000 0.311035
0.733337 0.000000 0.375427
0.799988 0.000000 0.439850
0.866669 0.000000 0.504425
0.933319 0.000000 0.568756
1.000000 0.000000 0.633301
0.386627 0.399994 0.000000
0.399994 0.346680 0.000000
0.399994 0.280060 0.000000
0.399994 0.213379 0.000000
0.399994 0.146667 0.000000
0.399994 0.080078 0.000000
0.399994 0.013367 0.000000
0.466675 0.000000 0.051056
0.533325 0.000000 0.115479
0.600006 0.000000 0.179871
0.666656 0.000000 0.244293
0.733337 0.000000 0.308838
0.799988 0.000000 0.373230
0.866669 0.000000 0.437775
0.933319 0.000000 0.502197
1.000000 0.000000 0.566650
0.451080 0.466675 0.000000
0.466675 0.415619 0.000000
0.466675 0.348969 0.000000
0.466675 0.282227 0.000000
0.466675 0.215668 0.000000
0.466675 0.148926 0.000000
0.466675 0.082275 0.000000
0.466675 0.015594 0.000000
0.533325 0.000000 0.048828
0.600006 0.000000 0.113220
0.666656 0.000000 0.177734
0.733337 0.000000 0.242065
0.799988 0.000000 0.306641
0.866669 0.000000 0.370911
0.933319 0.000000 0.435455
1.000000 0.000000 0.499756
0.515472 0.533325 0.000000
0.533325 0.484497 0.000000
0.533325 0.417847 0.000000
0.533325 0.351166 0.000000
0.533325 0.284515 0.000000
0.533325 0.217834 0.000000
0.533325 0.151184 0.000000
0.533325 0.084503 0.000000
0.533325 0.017853 0.000000
0.600006 0.000000 0.046570
0.666656 0.000000 0.110992
0.733337 0.000000 0.175446
0.799988 0.000000 0.239838
0.866669 0.000000 0.304260
0.933319 0.000000 0.368683
1.000000 0.000000 0.433105
0.579926 0.600006 0.000000
0.600006 0.553436 0.000000
0.600006 0.486786 0.000000
0.600006 0.420135 0.000000
0.600006 0.353485 0.000000
0.600006 0.286682 0.000000
0.600006 0.220032 0.000000
0.600006 0.153381 0.000000
0.600006 0.086731 0.000000
0.600006 0.020081 0.000000
0.666656 0.000000 0.044434
0.733337 0.000000 0.108856
0.799988 0.000000 0.173248
0.866669 0.000000 0.237610
0.933319 0.000000 0.302155
1.000000 0.000000 0.366455
0.644348 0.666656 0.000000
0.666656 0.622223 0.000000
0.666656 0.555664 0.000000
0.666656 0.488922 0.000000
0.666656 0.422363 0.000000
0.666656 0.355621 0.000000
0.666656 0.288910 0.000000
0.666656 0.222321 0.000000
0.666656 0.155609 0.000000
0.666656 0.089020 0.000000
0.666656 0.022308 0.000000
0.733337 0.000000 0.042084
0.799988 0.000000 0.106628
0.866669 0.000000 0.170959
0.933319 0.000000 0.235382
1.000000 0.000000 0.299805
0.708801 0.733337 0.000000
0.733337 0.691254 0.000000
0.733337 0.624481 0.000000
0.733337 0.557892 0.000000
0.733337 0.491272 0.000000
0.733337 0.424500 0.000000
0.733337 0.357910 0.000000
0.733337 0.291107 0.000000
0.733337 0.224518 0.000000
0.733337 0.157898 0.000000
0.733337 0.091125 0.000000
0.733337 0.024536 0.000000
0.799988 0.000000 0.039856
0.866669 0.000000 0.104309
0.933319 0.000000 0.168854
1.000000 0.000000 0.233154
0.773224 0.799988 0.000000
0.799988 0.760132 0.000000
0.799988 0.693359 0.000000
0.799988 0.626740 0.000000
0.799988 0.560150 0.000000
0.799988 0.493347 0.000000
0.799988 0.426758 0.000000
0.799988 0.360138 0.000000
0.799988 0.293365 0.000000
0.799988 0.226746 0.000000
0.799988 0.160156 0.000000
0.799988 0.093353 0.000000
0.799988 0.026764 0.000000
0.866669 0.000000 0.037659
0.933319 0.000000 0.102081
1.000000 0.000000 0.166504
0.837677 0.866669 0.000000
0.866669 0.829010 0.000000
0.866669 0.762360 0.000000
0.866669 0.695709 0.000000
0.866669 0.629059 0.000000
0.866669 0.562408 0.000000
0.866669 0.495758 0.000000
0.866669 0.428894 0.000000
0.866669 0.362244 0.000000
0.866669 0.295593 0.000000
0.866669 0.228943 0.000000
0.866669 0.162292 0.000000
0.866669 0.095642 0.000000
0.866669 0.028992 0.000000
0.933319 0.000000 0.035553
1.000000 0.000000 0.099854
0.902100 0.933319 0.000000
0.933319 0.897766 0.000000
0.933319 0.831238 0.000000
0.933319 0.764465 0.000000
0.933319 0.697937 0.000000
0.933319 0.631165 0.000000
0.933319 0.564636 0.000000
0.933319 0.497864 0.000000
0.933319 0.431122 0.000000
0.933319 0.364563 0.000000
0.933319 0.297821 0.000000
0.933319 0.231293 0.000000
0.933319 0.164520 0.000000
0.933319 0.097992 0.000000
0.933319 0.031219 0.000000
1.000000 0.000000 0.033203
0.966553 1.000000 0.000000
1.000000 0.966797 0.000000
1.000000 0.900146 0.000000
1.000000 0.833496 0.000000
1.000000 0.766846 0.000000
1.000000 0.700195 0.000000
1.000000 0.633545 0.000000
1.000000 0.566650 0.000000
1.000000 0.500000 0.000000
1.000000 0.433350 0.000000
1.000000 0.366699 0.000000
1.000000 0.300049 0.000000
1.000000 0.233398 0.000000
1.000000 0.166748 0.000000
1.000000 0.100098 0.000000
1.000000 0.033447 0.000000
0.000000 0.064453 0.066681
0.002228 0.000000 0.066681
0.071136 0.000000 0.133331
0.139984 0.000000 0.200012
0.208923 0.000000 0.266663
0.277832 0.000000 0.333344
0.346680 0.000000 0.399994
0.415619 0.000000 0.466675
0.484497 0.000000 0.533325
0.553436 0.000000 0.600006
0.622223 0.000000 0.666656
0.691254 0.000000 0.733337
0.760132 0.000000 0.799988
0.829010 0.000000 0.866669
0.897766 0.000000 0.933319
0.966797 0.000000 1.000000
0.000000 0.066681 0.002228
0.066681 0.066681 0.066681
0.133331 0.066681 0.131104
0.200012 0.066681 0.195557
0.266663 0.066681 0.259979
0.333344 0.066681 0.324432
0.399994 0.066681 0.388855
0.466675 0.066681 0.453308
0.533325 0.066681 0.517731
0.600006 0.066681 0.582153
0.666656 0.066681 0.646576
0.733337 0.066681 0.711029
0.799988 0.066681 0.775452
0.866669 0.066681 0.839905
0.933319 0.066681 0.904327
1.000000 0.066681 0.968781
0.062195 0.133331 0.000000
0.131104 0.133331 0.066681
0.133331 0.068909 0.066681
0.200012 0.066681 0.128876
0.266663 0.066681 0.193329
0.333344 0.066681 0.257751
0.399994 0.066681 0.322205
0.466675 0.066681 0.386597
0.533325 0.066681 0.451080
0.600006 0.066681 0.515503
0.666656 0.066681 0.579956
0.733337 0.066681 0.644318
0.799988 0.066681 0.708862
0.866669 0.066681 0.773315
0.933319 0.066681 0.837677
1.000000 0.066681 0.902008
0.126617 0.200012 0.000000
0.195557 0.200012 0.066681
0.200012 0.137817 0.066681
0.200012 0.071136 0.066681
0.266663 0.066681 0.126648
0.333344 0.066681 0.191101
0.399994 0.066681 0.255554
0.466675 0.066681 0.320007
0.533325 0.066681 0.384430
0.600006 0.066681 0.448822
0.666656 0.066681 0.513306
0.733337 0.066681 0.577728
0.799988 0.066681 0.642090
0.866669 0.066681 0.706512
0.933319 0.066681 0.771027
1.000000 0.066681 0.835480
0.191071 0.266663 0.000000
0.259979 0.266663 0.066681
0.266663 0.206696 0.066681
0.266663 0.140015 0.066681
0.266663 0.073364 0.066681
0.333344 0.066681 0.124420
0.399994 0.066681 0.188812
0.466675 0.066681 0.253296
0.533325 0.066681 0.317780
0.600006 0.066681 0.382172
0.666656 0.066681 0.446655
0.733337 0.066681 0.511017
0.799988 0.066681 0.575470
0.866669 0.066681 0.639923
0.933319 0.066681 0.704376
1.000000 0.066681 0.768707
0.255554 0.333344 0.000000
0.324432 0.333344 0.066681
0.333344 0.275604 0.066681
0.333344 0.208923 0.066681
0.333344 0.142273 0.066681
0.333344 0.075592 0.066681
0.399994 0.066681 0.122192
0.466675 0.066681 0.186615
0.533325 0.066681 0.251007
0.600006 0.066681 0.315491
0.666656 0.066681 0.380005
0.733337 0.066681 0.444427
0.799988 0.066681 0.508881
0.866669 0.066681 0.573303
0.933319 0.066681 0.637726
1.000000 0.066681 0.702179
0.319916 0.399994 0.000000
0.388855 0.399994 0.066681
0.399994 0.344482 0.066681
0.399994 0.277863 0.066681
0.399994 0.211121 0.066681
0.399994 0.144470 0.066681
0.399994 0.077820 0.066681
0.466675 0.066681 0.119995
0.533325 0.066681 0.184357
0.600006 0.066681 0.248840
0.666656 0.066681 0.313202
0.733337 0.066681 0.377716
0.799988 0.066681 0.442108
0.866669 0.066681 0.506531
0.933319 0.066681 0.571106
1.000000 0.066681 0.635437
0.384399 0.466675 0.000000
0.453308 0.466675 0.066681
0.466675 0.413361 0.066681
0.466675 0.346741 0.066681
0.466675 0.280060 0.066681
0.466675 0.213348 0.066681
0.466675 0.146759 0.066681
0.466675 0.080048 0.066681
0.533325 0.066681 0.117706
0.600006 0.066681 0.182159
0.666656 0.066681 0.246552
0.733337 0.066681 0.310974
0.799988 0.066681 0.375519
0.866669 0.066681 0.439911
0.933319 0.066681 0.504456
1.000000 0.066681 0.568878
0.448822 0.533325 0.000000
0.517731 0.533325 0.066681
0.533325 0.482300 0.066681
0.533325 0.415649 0.066681
0.533325 0.348999 0.066681
0.533325 0.282227 0.066681
0.533325 0.215576 0.066681
0.533325 0.148926 0.066681
0.533325 0.082275 0.066681
0.600006 0.066681 0.115509
0.666656 0.066681 0.179901
0.733337 0.066681 0.244415
0.799988 0.066681 0.308716
0.866669 0.066681 0.373322
0.933319 0.066681 0.437592
1.000000 0.066681 0.502136
0.513275 0.600006 0.000000
0.582153 0.600006 0.066681
0.600006 0.551178 0.066681
0.600006 0.484528 0.066681
0.600006 0.417847 0.066681
0.600006 0.351196 0.066681
0.600006 0.284515 0.066681
0.600006 0.217865 0.066681
0.600006 0.151184 0.066681
0.600006 0.084534 0.066681
0.666656 0.066681 0.113251
0.733337 0.066681 0.177673
0.799988 0.066681 0.242126
0.866669 0.066681 0.306519
0.933319 0.066681 0.370941
1.000000 0.066681 0.435364
0.577637 0.666656 0.000000
0.646576 0.666656 0.066681
0.666656 0.620087 0.066681
0.666656 0.553436 0.066681
0.666656 0.486786 0.066681
0.666656 0.420135 0.066681
0.666656 0.353333 0.066681
0.666656 0.286682 0.066681
0.666656 0.220032 0.066681
0.666656 0.153381 0.066681
0.666656 0.086761 0.066681
0.733337 0.066681 0.111115
0.799988 0.066681 0.175537
0.866669 0.066681 0.239929
0.933319 0.066681 0.304291
1.000000 0.066681 0.368835
0.642212 0.733337 0.000000
0.711029 0.733337 0.066681
0.733337 0.688904 0.066681
0.733337 0.622345 0.066681
0.733337 0.555603 0.066681
0.733337 0.489044 0.066681
0.733337 0.422302 0.066681
0.733337 0.355591 0.066681
0.733337 0.289001 0.066681
0.733337 0.222290 0.066681
0.733337 0.155701 0.066681
0.733337 0.088989 0.066681
0.799988 0.066681 0.108765
0.866669 0.066681 0.173309
0.933319 0.066681 0.237640
1.000000 0.066681 0.302063
0.706635 0.799988 0.000000
0.775452 0.799988 0.066681
0.799988 0.757904 0.066681
0.799988 0.691132 0.066681
0.799988 0.624542 0.066681
0.799988 0.557953 0.066681
0.799988 0.491150 0.066681
0.799988 0.424561 0.066681
0.799988 0.357788 0.066681
0.799988 0.291199 0.066681
0.799988 0.224579 0.066681
0.799988 0.157806 0.066681
0.799988 0.091217 0.066681
0.866669 0.066681 0.106537
0.933319 0.066681 0.170990
1.000000 0.066681 0.235535
0.771027 0.866669 0.000000
0.839905 0.866669 0.066681
0.866669 0.826813 0.066681
0.866669 0.760040 0.066681
0.866669 0.693420 0.066681
0.866669 0.626831 0.066681
0.866669 0.560028 0.066681
0.866669 0.493439 0.066681
0.866669 0.426819 0.066681
0.866669 0.360046 0.066681
0.866669 0.293427 0.066681
0.866669 0.226837 0.066681
0.866669 0.160034 0.066681
0.866669 0.093445 0.066681
0.933319 0.066681 0.104340
1.000000 0.066681 0.168762
0.835327 0.933319 0.000000
0.904327 0.933319 0.066681
0.933319 0.895660 0.066681
0.933319 0.829010 0.066681
0.933319 0.762360 0.066681
0.933319 0.695709 0.066681
0.933319 0.629059 0.066681
0.933319 0.562408 0.066681
0.933319 0.495544 0.066681
0.933319 0.428894 0.066681
0.933319 0.362274 0.066681
0.933319 0.295624 0.066681
0.933319 0.228973 0.066681
0.933319 0.162323 0.066681
0.933319 0.095673 0.066681
1.000000 0.066681 0.102234
0.899902 1.000000 0.000000
0.968781 1.000000 0.066681
1.000000 0.964447 0.066681
1.000000 0.897919 0.066681
1.000000 0.831146 0.066681
1.000000 0.764618 0.066681
1.000000 0.697845 0.066681
1.000000 0.631317 0.066681
1.000000 0.564545 0.066681
1.000000 0.497803 0.066681
1.000000 0.431244 0.066681
1.000000 0.364502 0.066681
1.000000 0.297974 0.066681
1.000000 0.231201 0.066681
1.000000 0.164673 0.066681
1.000000 0.097900 0.066681
0.000000 0.128876 0.133331
0.000000 0.062195 0.133331
0.004456 0.000000 0.133331
0.073395 0.000000 0.200012
0.142242 0.000000 0.266663
0.211182 0.000000 0.333344
0.280060 0.000000 0.399994
0.348969 0.000000 0.466675
0.417847 0.000000 0.533325
0.486786 0.000000 0.600006
0.555664 0.000000 0.666656
0.624481 0.000000 0.733337
0.693359 0.000000 0.799988
0.762360 0.000000 0.866669
0.831238 0.000000 0.933319
0.900146 0.000000 1.000000
0.000000 0.133331 0.071136
0.066681 0.131104 0.133331
0.068909 0.066681 0.133331
0.137817 0.066681 0.200012
0.206696 0.066681 0.266663
0.275604 0.066681 0.333344
0.344482 0.066681 0.399994
0.413361 0.066681 0.466675
0.482300 0.066681 0.533325
0.551178 0.066681 0.600006
0.620087 0.066681 0.666656
0.688904 0.066681 0.733337
0.757904 0.066681 0.799988
0.826813 0.066681 0.866669
0.895660 0.066681 0.933319
0.964447 0.066681 1.000000
0.000000 0.133331 0.004456
0.066681 0.133331 0.068909
0.133331 0.133331 0.133331
0.200012 0.133331 0.197784
0.266663 0.133331 0.262207
0.333344 0.133331 0.326660
0.399994 0.133331 0.391083
0.466675 0.133331 0.455536
0.533325 0.133331 0.519958
0.600006 0.133331 0.584412
0.666656 0.133331 0.648804
0.733337 0.133331 0.713257
0.799988 0.133331 0.777679
0.866669 0.133331 0.842133
0.933319 0.133331 0.906555
1.000000 0.133331 0.971008
0.060028 0.200012 0.000000
0.128876 0.200012 0.066681
0.197784 0.200012 0.133331
0.200012 0.135559 0.133331
0.266663 0.133331 0.195526
0.333344 0.133331 0.259949
0.399994 0.133331 0.324402
0.466675 0.133331 0.388885
0.533325 0.133331 0.453247
0.600006 0.133331 0.517731
0.666656 0.133331 0.582153
0.733337 0.133331 0.646606
0.799988 0.133331 0.710968
0.866669 0.133331 0.775543
0.933319 0.133331 0.839966
1.000000 0.133331 0.904358
0.124420 0.266663 0.000000
0.193329 0.266663 0.066681
0.262207 0.266663 0.133331
0.266663 0.204468 0.133331
0.266663 0.137787 0.133331
0.333344 0.133331 0.193359
0.399994 0.133331 0.257751
0.466675 0.133331 0.322235
0.533325 0.133331 0.386658
0.600006 0.133331 0.451080
0.666656 0.133331 0.515472
0.733337 0.133331 0.579956
0.799988 0.133331 0.644379
0.866669 0.133331 0.708771
0.933319 0.133331 0.773163
1.000000 0.133331 0.837708
0.188904 0.333344 0.000000
0.257751 0.333344 0.066681
0.326660 0.333344 0.133331
0.333344 0.273315 0.133331
0.333344 0.206726 0.133331
0.333344 0.140015 0.133331
0.399994 0.133331 0.191071
0.466675 0.133331 0.255493
0.533325 0.133331 0.319946
0.600006 0.133331 0.384338
0.666656 0.133331 0.448822
0.733337 0.133331 0.513306
0.799988 0.133331 0.577667
0.866669 0.133331 0.642151
0.933319 0.133331 0.706573
1.000000 0.133331 0.771057
0.253326 0.399994 0.000000
0.322205 0.399994 0.066681
0.391083 0.399994 0.133331
0.399994 0.342255 0.133331
0.399994 0.275574 0.133331
0.399994 0.208923 0.133331
0.399994 0.142242 0.133331
0.466675 0.133331 0.188843
0.533325 0.133331 0.253265
0.600006 0.133331 0.317780
0.666656 0.133331 0.382141
0.733337 0.133331 0.446655
0.799988 0.133331 0.511078
0.866669 0.133331 0.575562
0.933319 0.133331 0.639954
1.000000 0.133331 0.704407
0.317749 0.466675 0.000000
0.386597 0.466675 0.066681
0.455536 0.466675 0.133331
0.466675 0.411163 0.133331
0.466675 0.344513 0.133331
0.466675 0.277771 0.133331
0.466675 0.211121 0.133331
0.466675 0.144470 0.133331
0.533325 0.133331 0.186646
0.600006 0.133331 0.251038
0.666656 0.133331 0.315491
0.733337 0.133331 0.379852
0.799988 0.133331 0.444366
0.866669 0.133331 0.508759
0.933319 0.133331 0.573181
1.000000 0.133331 0.637756
0.382141 0.533325 0.000000
0.451080 0.533325 0.066681
0.519958 0.533325 0.133331
0.533325 0.480011 0.133331
0.533325 0.413391 0.133331
0.533325 0.346710 0.133331
0.533325 0.279999 0.133331
0.533325 0.213409 0.133331
0.533325 0.146698 0.133331
0.600006 0.133331 0.184387
0.666656 0.133331 0.248810
0.733337 0.133331 0.313202
0.799988 0.133331 0.377625
0.866669 0.133331 0.442169
0.933319 0.133331 0.506561
1.000000 0.133331 0.571106
0.446625 0.600006 0.000000
0.515503 0.600006 0.066681
0.584412 0.600006 0.133331
0.600006 0.548950 0.133331
0.600006 0.482300 0.133331
0.600006 0.415558 0.133331
0.600006 0.348999 0.133331
0.600006 0.282257 0.133331
0.600006 0.215607 0.133331
0.600006 0.148926 0.133331
0.666656 0.133331 0.182159
0.733337 0.133331 0.246552
0.799988 0.133331 0.311066
0.866669 0.133331 0.375397
0.933319 0.133331 0.439972
1.000000 0.133331 0.504242
0.511047 0.666656 0.000000
0.579956 0.666656 0.066681
0.648804 0.666656 0.133331
0.666656 0.617828 0.133331
0.666656 0.551178 0.133331
0.666656 0.484497 0.133331
0.666656 0.417847 0.133331
0.666656 0.351166 0.133331
0.666656 0.284515 0.133331
0.666656 0.217834 0.133331
0.666656 0.151184 0.133331
0.733337 0.133331 0.179901
0.799988 0.133331 0.244324
0.866669 0.133331 0.308777
0.933319 0.133331 0.373169
1.000000 0.133331 0.437592
0.575439 0.733337 0.000000
0.644318 0.733337 0.066681
0.713257 0.733337 0.133331
0.733337 0.686768 0.133331
0.733337 0.620117 0.133331
0.733337 0.553467 0.133331
0.733337 0.486816 0.133331
0.733337 0.420013 0.133331
0.733337 0.353363 0.133331
0.733337 0.286713 0.133331
0.733337 0.220062 0.133331
0.733337 0.153412 0.133331
0.799988 0.133331 0.177765
0.866669 0.133331 0.242188
0.933319 0.133331 0.306580
1.000000 0.133331 0.370941
0.639832 0.799988 0.000000
0.708862 0.799988 0.066681
0.777679 0.799988 0.133331
0.799988 0.755554 0.133331
0.799988 0.688995 0.133331
0.799988 0.622253 0.133331
0.799988 0.555695 0.133331
0.799988 0.488953 0.133331
0.799988 0.422241 0.133331
0.799988 0.355652 0.133331
0.799988 0.288940 0.133331
0.799988 0.222351 0.133331
0.799988 0.155640 0.133331
0.866669 0.133331 0.175415
0.933319 0.133331 0.239960
1.000000 0.133331 0.304291
0.704376 0.866669 0.000000
0.773315 0.866669 0.066681
0.842133 0.866669 0.133331
0.866669 0.824585 0.133331
0.866669 0.757812 0.133331
0.866669 0.691223 0.133331
0.866669 0.624603 0.133331
0.866669 0.557831 0.133331
0.866669 0.491241 0.133331
0.866669 0.424438 0.133331
0.866669 0.357849 0.133331
0.866669 0.291229 0.133331
0.866669 0.224457 0.133331
0.866669 0.157867 0.133331
0.933319 0.133331 0.173187
1.000000 0.133331 0.237640
0.768799 0.933319 0.000000
0.837677 0.933319 0.066681
0.906555 0.933319 0.133331
0.933319 0.893463 0.133331
0.933319 0.826691 0.133331
0.933319 0.760071 0.133331
0.933319 0.693481 0.133331
0.933319 0.626678 0.133331
0.933319 0.560089 0.133331
0.933319 0.493469 0.133331
0.933319 0.426697 0.133331
0.933319 0.360077 0.133331
0.933319 0.293488 0.133331
0.933319 0.226685 0.133331
0.933319 0.160095 0.133331
1.000000 0.133331 0.170990
0.833252 1.000000 0.000000
0.902008 1.000000 0.066681
0.971008 1.000000 0.133331
1.000000 0.962341 0.133331
1.000000 0.895691 0.133331
1.000000 0.829041 0.133331
1.000000 0.762390 0.133331
1.000000 0.695740 0.133331
1.000000 0.629089 0.133331
1.000000 0.562225 0.133331
1.000000 0.495575 0.133331
1.000000 0.428925 0.133331
1.000000 0.362274 0.133331
1.000000 0.295624 0.133331
1.000000 0.228973 0.133331
1.000000 0.162323 0.133331
0.000000 0.193329 0.200012
0.000000 0.126617 0.200012
0.000000 0.060028 0.200012
0.006683 0.000000 0.200012
0.075592 0.000000 0.266663
0.144440 0.000000 0.333344
0.213379 0.000000 0.399994
0.282227 0.000000 0.466675
0.351166 0.000000 0.533325
0.420135 0.000000 0.600006
0.488922 0.000000 0.666656
0.557892 0.000000 0.733337
0.626740 0.000000 0.799988
0.695709 0.000000 0.866669
0.764465 0.000000 0.933319
0.833496 0.000000 1.000000
0.000000 0.200012 0.139984
0.066681 0.195557 0.200012
0.066681 0.128876 0.200012
0.071136 0.066681 0.200012
0.140015 0.066681 0.266663
0.208923 0.066681 0.333344
0.277863 0.066681 0.399994
0.346741 0.066681 0.466675
0.415649 0.066681 0.533325
0.484528 0.066681 0.600006
0.553436 0.066681 0.666656
0.622345 0.066681 0.733337
0.691132 0.066681 0.799988
0.760040 0.066681 0.866669
0.829010 0.066681 0.933319
0.897919 0.066681 1.000000
0.000000 0.200012 0.073395
0.066681 0.200012 0.137817
0.133331 0.197784 0.200012
0.135559 0.133331 0.200012
0.204468 0.133331 0.266663
0.273315 0.133331 0.333344
0.342255 0.133331 0.399994
0.411163 0.133331 0.466675
0.480011 0.133331 0.533325
0.548950 0.133331 0.600006
0.617828 0.133331 0.666656
0.686768 0.133331 0.733337
0.755554 0.133331 0.799988
0.824585 0.133331 0.866669
0.893463 0.133331 0.933319
0.962341 0.133331 1.000000
0.000000 0.200012 0.006683
0.066681 0.200012 0.071136
0.133331 0.200012 0.135559
0.200012 0.200012 0.200012
0.266663 0.200012 0.264435
0.333344 0.200012 0.328888
0.399994 0.200012 0.393311
0.466675 0.200012 0.457764
0.533325 0.200012 0.522186
0.600006 0.200012 0.586639
0.666656 0.200012 0.651062
0.733337 0.200012 0.715485
0.799988 0.200012 0.779907
0.866669 0.200012 0.844360
0.933319 0.200012 0.908783
1.000000 0.200012 0.973236
0.057739 0.266663 0.000000
0.126648 0.266663 0.066681
0.195526 0.266663 0.133331
0.264435 0.266663 0.200012
0.266663 0.202240 0.200012
0.333344 0.200012 0.262207
0.399994 0.200012 0.326660
0.466675 0.200012 0.391083
0.533325 0.200012 0.455536
0.600006 0.200012 0.519928
0.666656 0.200012 0.584412
0.733337 0.200012 0.648834
0.799988 0.200012 0.713287
0.866669 0.200012 0.777649
0.933319 0.200012 0.842194
1.000000 0.200012 0.906647
0.122162 0.333344 0.000000
0.191101 0.333344 0.066681
0.259949 0.333344 0.133331
0.328888 0.333344 0.200012
0.333344 0.271149 0.200012
0.333344 0.204468 0.200012
0.399994 0.200012 0.259979
0.466675 0.200012 0.324432
0.533325 0.200012 0.388885
0.600006 0.200012 0.453339
0.666656 0.200012 0.517761
0.733337 0.200012 0.582153
0.799988 0.200012 0.646637
0.866669 0.200012 0.711060
0.933319 0.200012 0.775421
1.000000 0.200012 0.839844
0.186615 0.399994 0.000000
0.255554 0.399994 0.066681
0.324402 0.399994 0.133331
0.393311 0.399994 0.200012
0.399994 0.340027 0.200012
0.399994 0.273346 0.200012
0.399994 0.206696 0.200012
0.466675 0.200012 0.257751
0.533325 0.200012 0.322144
0.600006 0.200012 0.386627
0.666656 0.200012 0.451111
0.733337 0.200012 0.515503
0.799988 0.200012 0.579987
0.866669 0.200012 0.644348
0.933319 0.200012 0.708801
1.000000 0.200012 0.773254
0.251007 0.466675 0.000000
0.320007 0.466675 0.066681
