HW2_instructions/LUTs/Hue Shift.CUBE
#Created by: Adobe Photoshop Export Color Lookup Plugin
TITLE "Hue"
#LUT size
LUT_3D_SIZE 6
#data domain
DOMAIN_MIN 0.0 0.0 0.0
DOMAIN_MAX 1.0 1.0 1.0
#LUT data points
0.000000 0.000000 0.000000
0.200012 0.000000 0.193329
0.399994 0.000000 0.386627
0.600006 0.000000 0.579926
0.799988 0.000000 0.773224
1.000000 0.000000 0.966553
0.193329 0.200012 0.000000
0.200012 0.006683 0.000000
0.399994 0.000000 0.186615
0.600006 0.000000 0.379974
0.799988 0.000000 0.573242
1.000000 0.000000 0.766602
0.386627 0.399994 0.000000
0.399994 0.213379 0.000000
0.399994 0.013367 0.000000
0.600006 0.000000 0.179871
0.799988 0.000000 0.373230
1.000000 0.000000 0.566650
0.579926 0.600006 0.000000
0.600006 0.420135 0.000000
0.600006 0.220032 0.000000
0.600006 0.020081 0.000000
0.799988 0.000000 0.173248
1.000000 0.000000 0.366455
0.773224 0.799988 0.000000
0.799988 0.626740 0.000000
0.799988 0.426758 0.000000
0.799988 0.226746 0.000000
0.799988 0.026764 0.000000
1.000000 0.000000 0.166504
0.966553 1.000000 0.000000
1.000000 0.833496 0.000000
1.000000 0.633545 0.000000
1.000000 0.433350 0.000000
1.000000 0.233398 0.000000
1.000000 0.033447 0.000000
0.000000 0.193329 0.200012
0.006683 0.000000 0.200012
0.213379 0.000000 0.399994
0.420135 0.000000 0.600006
0.626740 0.000000 0.799988
0.833496 0.000000 1.000000
0.000000 0.200012 0.006683
0.200012 0.200012 0.200012
0.399994 0.200012 0.393311
0.600006 0.200012 0.586639
0.799988 0.200012 0.779907
1.000000 0.200012 0.973236
0.186615 0.399994 0.000000
0.393311 0.399994 0.200012
0.399994 0.206696 0.200012
0.600006 0.200012 0.386627
0.799988 0.200012 0.579987
1.000000 0.200012 0.773254
0.379974 0.600006 0.000000
0.586639 0.600006 0.200012
0.600006 0.413391 0.200012
0.600006 0.213379 0.200012
0.799988 0.200012 0.379883
1.000000 0.200012 0.573242
0.573242 0.799988 0.000000
0.779907 0.799988 0.200012
0.799988 0.620117 0.200012
0.799988 0.420013 0.200012
0.799988 0.220093 0.200012
1.000000 0.200012 0.373260
0.766602 1.000000 0.000000
0.973236 1.000000 0.200012
1.000000 0.826752 0.200012
1.000000 0.626770 0.200012
1.000000 0.426758 0.200012
1.000000 0.226776 0.200012
0.000000 0.386627 0.399994
0.000000 0.186615 0.399994
0.013367 0.000000 0.399994
0.220032 0.000000 0.600006
0.426758 0.000000 0.799988
0.633545 0.000000 1.000000
0.000000 0.399994 0.213379
0.200012 0.393311 0.399994
0.206696 0.200012 0.399994
0.413391 0.200012 0.600006
0.620117 0.200012 0.799988
0.826752 0.200012 1.000000
0.000000 0.399994 0.013367
0.200012 0.399994 0.206696
0.399994 0.399994 0.399994
0.600006 0.399994 0.593323
0.799988 0.399994 0.786621
1.000000 0.399994 0.979919
0.179871 0.600006 0.000000
0.386627 0.600006 0.200012
0.593323 0.600006 0.399994
0.600006 0.406677 0.399994
0.799988 0.399994 0.586609
1.000000 0.399994 0.779968
0.373230 0.799988 0.000000
0.579987 0.799988 0.200012
0.786621 0.799988 0.399994
0.799988 0.613373 0.399994
0.799988 0.413361 0.399994
1.000000 0.399994 0.579865
0.566650 1.000000 0.000000
0.773254 1.000000 0.200012
0.979919 1.000000 0.399994
1.000000 0.820129 0.399994
1.000000 0.620026 0.399994
1.000000 0.420074 0.399994
0.000000 0.579926 0.600006
0.000000 0.379974 0.600006
0.000000 0.179871 0.600006
0.020081 0.000000 0.600006
0.226746 0.000000 0.799988
0.433350 0.000000 1.000000
0.000000 0.600006 0.420135
0.200012 0.586639 0.600006
0.200012 0.386627 0.600006
0.213379 0.200012 0.600006
0.420013 0.200012 0.799988
0.626770 0.200012 1.000000
0.000000 0.600006 0.220032
0.200012 0.600006 0.413391
0.399994 0.593323 0.600006
0.406677 0.399994 0.600006
0.613373 0.399994 0.799988
0.820129 0.399994 1.000000
0.000000 0.600006 0.020081
0.200012 0.600006 0.213379
0.399994 0.600006 0.406677
0.600006 0.600006 0.600006
0.799988 0.600006 0.793304
1.000000 0.600006 0.986633
0.173248 0.799988 0.000000
0.379883 0.799988 0.200012
0.586609 0.799988 0.399994
0.793304 0.799988 0.600006
0.799988 0.606689 0.600006
1.000000 0.600006 0.786621
0.366455 1.000000 0.000000
0.573242 1.000000 0.200012
0.779968 1.000000 0.399994
0.986633 1.000000 0.600006
1.000000 0.813385 0.600006
1.000000 0.613373 0.600006
0.000000 0.773224 0.799988
0.000000 0.573242 0.799988
0.000000 0.373230 0.799988
0.000000 0.173248 0.799988
0.026764 0.000000 0.799988
0.233398 0.000000 1.000000
0.000000 0.799988 0.626740
0.200012 0.779907 0.799988
0.200012 0.579987 0.799988
0.200012 0.379883 0.799988
0.220093 0.200012 0.799988
0.426758 0.200012 1.000000
0.000000 0.799988 0.426758
0.200012 0.799988 0.620117
0.399994 0.786621 0.799988
0.399994 0.586609 0.799988
0.413361 0.399994 0.799988
0.620026 0.399994 1.000000
0.000000 0.799988 0.226746
0.200012 0.799988 0.420013
0.399994 0.799988 0.613373
0.600006 0.793304 0.799988
0.606689 0.600006 0.799988
0.813385 0.600006 1.000000
0.000000 0.799988 0.026764
0.200012 0.799988 0.220093
0.399994 0.799988 0.413361
0.600006 0.799988 0.606689
0.799988 0.799988 0.799988
1.000000 0.799988 0.993317
0.166504 1.000000 0.000000
0.373260 1.000000 0.200012
0.579865 1.000000 0.399994
0.786621 1.000000 0.600006
0.993317 1.000000 0.799988
1.000000 0.806671 0.799988
0.000000 0.966553 1.000000
0.000000 0.766602 1.000000
0.000000 0.566650 1.000000
0.000000 0.366455 1.000000
0.000000 0.166504 1.000000
0.033447 0.000000 1.000000
0.000000 1.000000 0.833496
0.200012 0.973236 1.000000
0.200012 0.773254 1.000000
0.200012 0.573242 1.000000
0.200012 0.373260 1.000000
0.226776 0.200012 1.000000
0.000000 1.000000 0.633545
0.200012 1.000000 0.826752
0.399994 0.979919 1.000000
0.399994 0.779968 1.000000
0.399994 0.579865 1.000000
0.420074 0.399994 1.000000
0.000000 1.000000 0.433350
0.200012 1.000000 0.626770
0.399994 1.000000 0.820129
0.600006 0.986633 1.000000
0.600006 0.786621 1.000000
0.613373 0.600006 1.000000
0.000000 1.000000 0.233398
0.200012 1.000000 0.426758
0.399994 1.000000 0.620026
0.600006 1.000000 0.813385
0.799988 0.993317 1.000000
0.806671 0.799988 1.000000
0.000000 1.000000 0.033447
0.200012 1.000000 0.226776
0.399994 1.000000 0.420074
0.600006 1.000000 0.613373
0.799988 1.000000 0.806671
1.000000 1.000000 1.000000
