HW2_instructions/LUTs/LOOKED_CM_3.cube
#Created by: Adobe Photoshop Export Color Lookup Plugin
TITLE "LOOKED_CM_3"
#LUT size
LUT_3D_SIZE 8
#data domain
#LUT data points
DOMAIN_MIN 0.000000 0.000000 0.000000
DOMAIN_MAX 0.903226 0.903226 0.903226
0.185272 0.000000 0.219299
0.200653 0.000122 0.219147
0.332458 0.023560 0.223236
0.454773 0.049438 0.238159
0.565735 0.086884 0.259949
0.667847 0.126160 0.279968
0.763672 0.166260 0.298767
0.855774 0.206970 0.316864
0.185272 0.114410 0.219299
0.200806 0.114410 0.219299
0.338043 0.105774 0.242615
0.460358 0.176727 0.266632
0.571320 0.229736 0.288391
0.673401 0.276703 0.308441
0.769257 0.320953 0.327240
0.861359 0.362671 0.345306
0.185272 0.319244 0.219299
0.200806 0.319244 0.219299
0.376129 0.271820 0.249207
0.460358 0.230804 0.266632
0.571320 0.303802 0.288391
0.673401 0.370331 0.308441
0.769257 0.429810 0.327240
0.861359 0.483887 0.345306
0.185272 0.500122 0.219299
0.200806 0.500122 0.219299
0.384949 0.472595 0.239227
0.495972 0.400055 0.273621
0.571320 0.361511 0.288391
0.673401 0.416229 0.308441
0.769257 0.473480 0.327240
0.861359 0.525909 0.345306
0.185272 0.645081 0.219330
0.200806 0.645081 0.219330
0.377136 0.632141 0.230042
0.542419 0.572052 0.278076
0.590424 0.494568 0.292175
0.673401 0.477386 0.308441
0.769257 0.512268 0.327240
0.861359 0.563019 0.345306
0.185272 0.765747 0.219269
0.200806 0.765747 0.219330
0.366455 0.762329 0.222443
0.554840 0.709930 0.269379
0.666138 0.663879 0.308929
0.678497 0.577606 0.309418
0.769257 0.576508 0.327240
0.861359 0.596558 0.345306
0.185272 0.870728 0.219330
0.200806 0.870728 0.219299
0.362701 0.869843 0.220184
0.556671 0.827301 0.261475
0.691620 0.781158 0.304932
0.761841 0.740601 0.325836
0.769257 0.659210 0.327240
0.861359 0.663147 0.345306
0.185272 0.966675 0.219391
0.200806 0.966675 0.219391
0.361328 0.966675 0.219299
0.553070 0.932739 0.253723
0.705139 0.889496 0.297089
0.806763 0.848969 0.336884
0.842438 0.800720 0.341614
0.861359 0.737518 0.345306
0.185272 0.000000 0.311096
0.200806 0.000000 0.311096
0.359802 0.001160 0.309631
0.471344 0.030396 0.299164
0.572113 0.063843 0.307648
0.668152 0.095642 0.319153
0.763672 0.121155 0.329071
0.855774 0.146759 0.338470
0.185272 0.114410 0.311096
0.200806 0.114410 0.311096
0.351318 0.128357 0.311218
0.472565 0.171875 0.328705
0.583527 0.221283 0.350464
0.685608 0.268097 0.370514
0.781433 0.312347 0.389313
0.873535 0.354126 0.407379
0.185272 0.319244 0.311096
0.200806 0.319244 0.311096
0.369232 0.308075 0.318176
0.475433 0.289001 0.343323
0.586395 0.361694 0.365112
0.688477 0.424011 0.385162
0.784332 0.467407 0.403992
0.876404 0.504486 0.422028
0.185272 0.500122 0.311066
0.200806 0.500122 0.311096
0.362610 0.499054 0.311890
0.510803 0.439880 0.350342
0.586395 0.408203 0.365112
0.688477 0.469208 0.385162
0.784332 0.523987 0.403992
0.876404 0.574219 0.422028
0.185272 0.645081 0.311096
0.200806 0.645081 0.311096
0.361328 0.645081 0.311096
0.538025 0.600861 0.347107
0.605469 0.531586 0.368866
0.688477 0.515594 0.385162
0.784332 0.561127 0.403992
0.876404 0.609863 0.422028
0.185272 0.765747 0.311127
0.200806 0.765747 0.311127
0.361328 0.765747 0.311096
0.540649 0.735382 0.338593
0.668793 0.686035 0.381897
0.693542 0.612091 0.386139
0.784332 0.610992 0.403992
0.876404 0.642090 0.422028
0.185272 0.870728 0.311096
0.200806 0.870728 0.311066
0.361328 0.870728 0.311096
0.535065 0.851013 0.330353
0.688141 0.805389 0.374023
0.775482 0.769196 0.402557
0.784332 0.691345 0.403992
0.876404 0.695160 0.422028
0.185272 0.966675 0.311096
0.200806 0.966675 0.311096
0.361328 0.966675 0.311096
0.525726 0.955231 0.322723
0.695648 0.912109 0.366302
0.808350 0.871857 0.406281
0.857483 0.829590 0.418335
0.876404 0.767639 0.422028
0.185272 0.000000 0.398102
0.200806 0.000000 0.398102
0.361328 0.000000 0.398102
0.499847 0.005951 0.390442
0.600677 0.033630 0.377411
0.693176 0.065063 0.378998
0.780029 0.099243 0.386047
0.864410 0.134399 0.395020
0.185272 0.114410 0.398102
0.200806 0.114380 0.398102
0.361328 0.114410 0.398102
0.490356 0.138458 0.388397
0.591217 0.185516 0.392670
0.686066 0.227692 0.403870
0.781433 0.258270 0.413818
0.873535 0.287018 0.423187
0.185272 0.319244 0.398102
0.200806 0.319244 0.398132
0.361328 0.319244 0.398102
0.489685 0.343506 0.416077
0.600677 0.394928 0.437866
0.702728 0.438446 0.457886
0.798584 0.477936 0.476685
0.890686 0.514557 0.494781
0.185272 0.500122 0.398132
0.200806 0.500122 0.398132
0.361328 0.500122 0.398132
0.517029 0.467804 0.421417
0.600677 0.458618 0.437866
0.702728 0.517365 0.457886
0.798584 0.569916 0.476685
0.890686 0.617310 0.494781
0.185272 0.645081 0.398102
0.200806 0.645081 0.398132
0.361328 0.645081 0.398102
0.525543 0.627533 0.412567
0.619751 0.565613 0.441589
0.702728 0.554993 0.457886
0.798584 0.605652 0.476685
0.890686 0.652527 0.494781
0.185272 0.765747 0.398102
0.200806 0.765747 0.398102
0.361328 0.765747 0.398102
0.516937 0.759186 0.404114
0.669128 0.710449 0.447723
0.707825 0.643860 0.458893
0.798584 0.643433 0.476685
0.890686 0.683594 0.494781
0.185272 0.870728 0.398132
0.200806 0.870728 0.398132
0.361328 0.870728 0.398132
0.509338 0.869659 0.399170
0.680511 0.827881 0.439697
0.783081 0.790344 0.474945
0.798584 0.721069 0.476685
0.890686 0.724762 0.494781
0.185272 0.966675 0.398132
0.200806 0.966675 0.398071
0.361328 0.966675 0.398163
0.507660 0.966675 0.398102
0.681244 0.933502 0.431763
0.807648 0.893463 0.471954
0.871765 0.856445 0.491089
0.890686 0.795685 0.494781
0.185272 0.000000 0.480133
0.200836 0.000000 0.480133
0.361328 0.000000 0.480133
0.507660 0.000000 0.480133
0.627533 0.009918 0.467682
0.720337 0.036041 0.453583
0.807037 0.065948 0.450867
0.891449 0.097656 0.453339
0.185272 0.114349 0.480133
0.200806 0.114410 0.480133
0.361328 0.114410 0.480133
0.507660 0.114410 0.480133
0.618073 0.145691 0.464722
0.710815 0.189362 0.462128
0.797607 0.232697 0.467865
0.881500 0.274353 0.476776
0.185272 0.319275 0.480133
0.200806 0.319244 0.480133
0.361328 0.319244 0.480133
0.505493 0.322662 0.478333
0.607117 0.371094 0.480896
0.707581 0.403839 0.491699
0.803436 0.434570 0.503662
0.895569 0.470184 0.520050
0.185272 0.500122 0.480133
0.200806 0.500122 0.480133
0.361328 0.500122 0.480133
0.511658 0.495483 0.483521
0.614105 0.504425 0.506409
0.716217 0.559418 0.526459
0.812042 0.596222 0.545258
0.904144 0.629333 0.563324
0.185272 0.645081 0.480133
0.200806 0.645081 0.480133
0.361328 0.645081 0.480133
0.507660 0.645081 0.480133
0.633209 0.596771 0.510132
0.716217 0.596985 0.526459
0.812042 0.646088 0.545258
0.904144 0.691376 0.563324
0.185272 0.765747 0.480133
0.200806 0.765747 0.480133
0.361328 0.765747 0.480133
0.507660 0.765747 0.480133
0.665314 0.733398 0.509399
0.721283 0.672974 0.527435
0.812042 0.677399 0.545258
0.904144 0.721466 0.563324
0.185272 0.870728 0.480133
0.200806 0.870728 0.480103
0.361328 0.870728 0.480133
0.507660 0.870728 0.480133
0.666901 0.848969 0.501343
0.785645 0.807465 0.541107
0.812042 0.748413 0.545258
0.904144 0.752777 0.563324
0.185272 0.966675 0.480133
0.200806 0.966675 0.480103
0.361328 0.966675 0.480103
0.507629 0.966675 0.480133
0.660187 0.953552 0.493439
0.804260 0.913879 0.533569
0.884186 0.880310 0.559601
0.904144 0.821533 0.563324
0.185272 0.000000 0.557648
0.200806 0.000000 0.557648
0.361328 0.000000 0.557648
0.507660 0.000000 0.557648
0.640442 0.000000 0.557648
0.746185 0.012756 0.541565
0.832672 0.038361 0.526672
0.915649 0.067749 0.521271
0.185272 0.114380 0.557648
0.200806 0.114380 0.557648
0.361328 0.114410 0.557648
0.507660 0.114410 0.557648
0.640411 0.114441 0.557587
0.736053 0.151642 0.537720
0.823334 0.192657 0.531586
0.906982 0.233887 0.532928
0.185272 0.319275 0.557648
0.200806 0.319305 0.557648
0.361328 0.319275 0.557648
0.507660 0.319244 0.557648
0.631714 0.332886 0.550201
0.724457 0.378265 0.545410
0.811615 0.419342 0.552338
0.896790 0.455536 0.562592
0.185272 0.500122 0.557648
0.200806 0.500092 0.557617
0.361328 0.500122 0.557648
0.507660 0.500122 0.557648
0.625519 0.523956 0.565796
0.727570 0.561188 0.584412
0.823425 0.596527 0.603058
0.915497 0.629608 0.621155
0.185272 0.645081 0.557648
0.200806 0.645081 0.557648
0.361328 0.645081 0.557648
0.507660 0.645081 0.557648
0.644348 0.623627 0.574890
0.728912 0.635498 0.591248
0.824799 0.683014 0.610046
0.916870 0.725128 0.628143
0.185272 0.765747 0.557617
0.200806 0.765747 0.557617
0.361328 0.765747 0.557648
0.507660 0.765747 0.557617
0.653473 0.754669 0.567749
0.734009 0.699860 0.592255
0.824799 0.713318 0.610046
0.916870 0.756195 0.628143
0.185272 0.870728 0.557617
0.200806 0.870728 0.557648
0.361328 0.870728 0.557648
0.507660 0.870728 0.557617
0.644348 0.868225 0.560089
0.786438 0.827545 0.599548
0.824799 0.773743 0.610046
0.916870 0.783356 0.628143
0.185272 0.966675 0.557648
0.200806 0.966675 0.557648
0.361328 0.966675 0.557648
0.507660 0.966675 0.557648
0.640411 0.966675 0.557648
0.796844 0.932800 0.591980
0.893280 0.900208 0.624176
0.916870 0.845581 0.628143
0.185272 0.000000 0.631165
0.200806 0.000000 0.631165
0.361328 0.000000 0.631165
0.507629 0.000000 0.631165
0.640442 0.000000 0.631195
0.762543 0.000000 0.631165
0.856720 0.016205 0.611572
0.939941 0.041260 0.596466
0.185272 0.114410 0.631165
0.200806 0.114380 0.631165
0.361328 0.114410 0.631165
0.507629 0.114410 0.631165
0.640442 0.114410 0.631195
0.760101 0.117706 0.628571
0.847015 0.157074 0.607422
0.930786 0.196808 0.599243
0.185272 0.319244 0.631165
0.200806 0.319244 0.631165
0.361328 0.319275 0.631165
0.507660 0.319244 0.631165
0.640442 0.319244 0.631165
0.748779 0.340851 0.619202
0.835541 0.383759 0.611176
0.919128 0.423248 0.613281
0.185272 0.500092 0.631165
0.200806 0.500122 0.631165
0.361328 0.500122 0.631165
0.507660 0.500122 0.631165
0.640350 0.500244 0.631104
0.737915 0.533264 0.623840
0.825592 0.568634 0.632294
0.915649 0.594238 0.642059
0.185272 0.645081 0.631165
0.200806 0.645081 0.631195
0.361328 0.645081 0.631195
0.507660 0.645081 0.631195
0.642029 0.643280 0.632721
0.740997 0.669067 0.652710
0.836853 0.702850 0.671539
0.928925 0.733154 0.689636
0.185272 0.765747 0.631195
0.200806 0.765747 0.631195
0.361328 0.765747 0.631195
0.507660 0.765747 0.631195
0.640442 0.765747 0.631165
0.746094 0.724823 0.653748
0.836853 0.746552 0.671539
0.928925 0.788330 0.689636
0.185272 0.870728 0.631226
0.200806 0.870728 0.631195
0.361328 0.870728 0.631195
0.507660 0.870728 0.631165
0.640442 0.870728 0.631165
0.783051 0.846283 0.655060
0.836853 0.797363 0.671539
0.928925 0.814819 0.689636
0.185272 0.966675 0.631134
0.200806 0.966675 0.631165
0.361328 0.966675 0.631165
0.507660 0.966675 0.631195
0.640411 0.966675 0.631195
0.783539 0.950836 0.647247
0.896027 0.914185 0.684326
0.928925 0.868134 0.689636
0.185272 0.000000 0.701324
0.200806 0.000000 0.701324
0.361298 0.000000 0.701324
0.507660 0.000000 0.701324
0.640411 0.000000 0.701324
0.762543 0.000000 0.701294
0.877228 0.000000 0.701294
0.963654 0.018982 0.678528
0.185272 0.114410 0.701324
0.200806 0.114380 0.701324
0.361328 0.114410 0.701324
0.507629 0.114410 0.701324
0.640442 0.114410 0.701324
0.762543 0.114410 0.701324
0.870361 0.123749 0.693787
0.954163 0.161530 0.674072
0.185272 0.319305 0.701324
0.200806 0.319244 0.701324
0.361328 0.319275 0.701324
0.507660 0.319244 0.701324
0.640442 0.319244 0.701324
0.762543 0.319244 0.701324
0.858917 0.347870 0.685272
0.942413 0.388733 0.675507
0.185272 0.500122 0.701324
0.200806 0.500092 0.701324
0.361328 0.500092 0.701324
0.507660 0.500092 0.701324
0.640442 0.500122 0.701324
0.760223 0.503204 0.698944
0.847992 0.539337 0.686615
0.931549 0.574005 0.689178
0.185272 0.645142 0.701324
0.200806 0.645111 0.701324
0.361328 0.645081 0.701324
0.507660 0.645081 0.701324
0.640442 0.645081 0.701324
0.751160 0.658630 0.698639
0.842285 0.686707 0.707367
0.934204 0.710815 0.719543
0.185272 0.765747 0.701324
0.200806 0.765747 0.701355
0.361328 0.765747 0.701324
0.507660 0.765747 0.701324
0.640442 0.765747 0.701324
0.757568 0.748169 0.712341
0.848328 0.777374 0.730164
0.940430 0.815765 0.748230
0.185272 0.870728 0.701294
0.200806 0.870728 0.701324
0.361328 0.870728 0.701324
0.507660 0.870728 0.701324
0.640442 0.870728 0.701294
0.771362 0.863861 0.708038
0.848328 0.819427 0.730164
0.940430 0.844269 0.748230
0.185272 0.966675 0.701324
0.200806 0.966675 0.701294
0.361328 0.966675 0.701355
0.507660 0.966675 0.701324
0.640442 0.966675 0.701324
0.763672 0.965973 0.701996
0.896881 0.930786 0.737732
0.940430 0.889313 0.748230
0.185272 0.000000 0.768585
0.200806 0.000000 0.768585
0.361328 0.000000 0.768585
0.507629 0.000000 0.768585
0.640411 0.000000 0.768585
0.762512 0.000000 0.768616
0.877228 0.000000 0.768585
0.985779 0.001129 0.766510
0.185272 0.114380 0.768585
0.200806 0.114410 0.768585
0.361298 0.114410 0.768585
0.507690 0.114410 0.768585
0.640442 0.114410 0.768585
0.762543 0.114410 0.768616
0.877228 0.114410 0.768585
0.976105 0.129913 0.756622
0.185272 0.319244 0.768585
0.200806 0.319244 0.768585
0.361328 0.319244 0.768585
0.507629 0.319244 0.768585
0.640442 0.319244 0.768585
0.762543 0.319244 0.768585
0.877136 0.319397 0.768494
0.964813 0.354492 0.748627
0.185272 0.500122 0.768585
0.200806 0.500122 0.768585
0.361328 0.500122 0.768585
0.507660 0.500122 0.768585
0.640442 0.500122 0.768585
0.762543 0.500122 0.768585
0.870056 0.509796 0.761536
0.953949 0.544891 0.748474
0.185272 0.645142 0.768585
0.200806 0.645081 0.768585
0.361328 0.645111 0.768585
0.507660 0.645081 0.768585
0.640442 0.645081 0.768585
0.762543 0.645081 0.768585
0.860199 0.665344 0.759125
0.943848 0.696350 0.761414
0.185272 0.765747 0.768616
0.200806 0.765747 0.768585
0.361328 0.765747 0.768616
0.507660 0.765747 0.768585
0.640442 0.765747 0.768585
0.762695 0.765228 0.769073
0.858612 0.791168 0.783264
0.950684 0.818542 0.800446
0.185272 0.870728 0.768585
0.200806 0.870728 0.768585
0.361328 0.870728 0.768585
0.507660 0.870728 0.768585
0.640442 0.870728 0.768616
0.762543 0.870728 0.768585
0.859406 0.840424 0.786438
0.951477 0.872009 0.804504
0.185272 0.966675 0.768585
0.200806 0.966675 0.768585
0.361328 0.966675 0.768555
0.507660 0.966675 0.768585
0.640442 0.966675 0.768616
0.762543 0.966675 0.768585
0.893829 0.947083 0.788452
0.951477 0.909454 0.804504
