HW2_instructions/LUTs/LOOKED_CM_3.cube
#Created by: Adobe Photoshop Export Color Lookup Plugin
TITLE "LOOKED_CM_3"
#LUT size
LUT_3D_SIZE 5
#data domain
#LUT data points
DOMAIN_MIN 0.000000 0.000000 0.000000
DOMAIN_MAX 0.903226 0.903226 0.903226
0.185272 0.000000 0.219299
0.300873 0.017059 0.219666
0.511505 0.067841 0.249298
0.692291 0.136169 0.284790
0.855774 0.206970 0.316864
0.185272 0.267853 0.219299
0.337158 0.236969 0.238708
0.517090 0.254974 0.277740
0.697845 0.373505 0.313202
0.861359 0.462250 0.345306
0.185272 0.576294 0.219330
0.327271 0.572021 0.222626
0.544067 0.448944 0.283020
0.697845 0.451782 0.313202
0.861359 0.545013 0.345306
0.185272 0.793182 0.219360
0.322266 0.793182 0.219299
0.623047 0.715454 0.289948
0.699799 0.597015 0.313599
0.861359 0.605438 0.345306
0.185272 0.966675 0.219391
0.322235 0.966675 0.219299
0.636230 0.910614 0.276031
0.826385 0.844574 0.341156
0.861359 0.737518 0.345306
0.185272 0.000000 0.376862
0.322296 0.000000 0.376862
0.544250 0.025726 0.358917
0.708221 0.081970 0.364807
0.857452 0.144348 0.382324
0.185272 0.267853 0.376862
0.322266 0.267853 0.376862
0.542938 0.334625 0.409454
0.723694 0.414459 0.444916
0.887207 0.482300 0.477020
0.185272 0.576294 0.376831
0.322266 0.576294 0.376831
0.569916 0.514252 0.414734
0.723694 0.538727 0.444916
0.887207 0.625366 0.477020
0.185272 0.793182 0.376862
0.322266 0.793182 0.376831
0.609283 0.759155 0.408295
0.725647 0.654572 0.445312
0.887207 0.681030 0.477020
0.185272 0.966675 0.376862
0.322266 0.966675 0.376831
0.601227 0.949280 0.394501
0.830444 0.878387 0.465607
0.887207 0.788879 0.477020
0.185272 0.000000 0.519409
0.322266 0.000000 0.519409
0.575531 0.000000 0.519409
0.755249 0.030609 0.492889
0.903564 0.082306 0.486328
0.185272 0.267883 0.519409
0.322266 0.267822 0.519409
0.572815 0.272156 0.516632
0.737000 0.354248 0.511810
0.890411 0.417999 0.529358
0.185272 0.576294 0.519409
0.322266 0.576294 0.519409
0.582520 0.561798 0.530670
0.747101 0.612152 0.564087
0.910614 0.679565 0.596161
0.185272 0.793182 0.519409
0.322266 0.793182 0.519379
0.575623 0.793121 0.519470
0.749023 0.704315 0.564423
0.910614 0.746216 0.596161
0.185272 0.966675 0.519409
0.322266 0.966675 0.519379
0.575531 0.966675 0.519409
0.829132 0.913971 0.572723
0.910614 0.833801 0.596161
0.185272 0.000000 0.648987
0.322296 0.000000 0.648987
0.575562 0.000000 0.648987
0.791779 0.000000 0.649017
0.945984 0.035278 0.616425
0.185272 0.267853 0.648987
0.322266 0.267853 0.648987
0.575531 0.267853 0.648987
0.779633 0.287170 0.637451
0.927856 0.361603 0.623871
0.185272 0.576294 0.648987
0.322266 0.576263 0.648987
0.575531 0.576294 0.648987
0.762604 0.613007 0.651093
0.925110 0.658203 0.672180
0.185272 0.793182 0.648987
0.322266 0.793182 0.648987
0.575531 0.793182 0.648987
0.770264 0.747833 0.672821
0.931854 0.802765 0.704529
0.185272 0.966675 0.648987
0.322266 0.966675 0.649017
0.575531 0.966675 0.649017
0.816132 0.945770 0.670258
0.931854 0.873535 0.704529
0.185272 0.000000 0.768585
0.322296 0.000000 0.768585
0.575531 0.000000 0.768585
0.791779 0.000000 0.768616
0.985779 0.001129 0.766510
0.185272 0.267853 0.768585
0.322266 0.267883 0.768585
0.575531 0.267853 0.768585
0.791779 0.267853 0.768616
0.967255 0.299866 0.749969
0.185272 0.576263 0.768585
0.322266 0.576294 0.768585
0.575531 0.576294 0.768585
0.791779 0.576294 0.768585
0.948639 0.624756 0.752747
0.185272 0.793182 0.768585
0.322266 0.793182 0.768616
0.575531 0.793182 0.768585
0.789093 0.786255 0.772675
0.951477 0.840240 0.804504
0.185272 0.966675 0.768585
0.322266 0.966675 0.768585
0.575531 0.966675 0.768616
0.791779 0.966675 0.768585
0.951477 0.909454 0.804504
