HW2_instructions/LUTs/LOOKED_CM_3.cube
#Created by: Adobe Photoshop Export Color Lookup Plugin
TITLE "LOOKED_CM_3"
#LUT size
LUT_3D_SIZE 32
#data domain
DOMAIN_MIN 0.0 0.0 0.0
DOMAIN_MAX 1.0 1.0 1.0
#LUT data points
0.185272 0.000000 0.219299
0.185272 0.000000 0.219299
0.185272 0.000000 0.219299
0.186279 0.000000 0.219299
0.200653 0.000122 0.219147
0.238464 0.002075 0.217743
0.269989 0.009399 0.216736
0.300873 0.017059 0.219666
0.332458 0.023560 0.223236
0.364258 0.029266 0.226471
0.395233 0.035065 0.229645
0.425385 0.041443 0.233215
0.454773 0.049438 0.238159
0.483490 0.058533 0.243774
0.511505 0.067841 0.249298
0.538910 0.077301 0.254669
0.565735 0.086884 0.259949
0.591980 0.096558 0.265106
0.617737 0.106384 0.270142
0.643036 0.116272 0.275116
0.667847 0.126160 0.279968
0.692291 0.136169 0.284790
0.716370 0.146210 0.289520
0.740173 0.156219 0.294159
0.763672 0.166260 0.298767
0.786926 0.176422 0.303345
0.810028 0.186584 0.307861
0.832947 0.196747 0.312378
0.855774 0.206970 0.316864
0.878510 0.217377 0.321320
0.895752 0.225189 0.324707
0.896271 0.225433 0.324799
0.185272 0.001129 0.219299
0.185272 0.001129 0.219299
0.185272 0.001129 0.219299
0.186279 0.001129 0.219299
0.200592 0.001343 0.219269
0.238525 0.003326 0.218109
0.270142 0.010773 0.217255
0.300903 0.018585 0.220367
0.332672 0.025146 0.223969
0.364471 0.031036 0.227295
0.395447 0.037018 0.230560
0.425568 0.043579 0.234222
0.454987 0.051758 0.239258
0.483704 0.060913 0.244904
0.511719 0.070312 0.250397
0.539154 0.079834 0.255768
0.565948 0.089508 0.261047
0.592194 0.099274 0.266174
0.617950 0.109131 0.271240
0.643219 0.119019 0.276215
0.668030 0.128937 0.281097
0.692474 0.139038 0.285858
0.716583 0.149078 0.290619
0.740387 0.159210 0.295288
0.763885 0.169342 0.299896
0.787140 0.179413 0.304443
0.810242 0.189575 0.308990
0.833160 0.199860 0.313507
0.855988 0.210175 0.317932
0.878723 0.220367 0.322418
0.895966 0.228210 0.325836
0.896515 0.228455 0.325928
0.185272 0.031311 0.219299
0.185272 0.031311 0.219299
0.185272 0.031311 0.219299
0.186279 0.031311 0.219299
0.200806 0.031311 0.219635
0.237610 0.034637 0.222931
0.271790 0.044647 0.229187
0.305237 0.055206 0.235596
0.337891 0.065796 0.241821
0.369659 0.076660 0.248077
0.400665 0.087738 0.254181
0.430817 0.098877 0.260071
0.460205 0.110168 0.265839
0.488922 0.121460 0.271484
0.516937 0.132782 0.276978
0.544342 0.144135 0.282349
0.571167 0.155426 0.287628
0.597412 0.166687 0.292786
0.623169 0.177887 0.297821
0.648438 0.188995 0.302795
0.673248 0.200073 0.307648
0.697693 0.211090 0.312439
0.721802 0.221954 0.317200
0.745605 0.232849 0.321869
0.769104 0.243622 0.326477
0.792389 0.254333 0.331055
0.815460 0.264923 0.335571
0.838409 0.275604 0.340057
0.861176 0.286194 0.344543
0.883942 0.296600 0.348999
0.901154 0.304535 0.352386
0.901672 0.304779 0.352509
0.185272 0.069427 0.219299
0.185272 0.069427 0.219299
0.185272 0.069427 0.219299
0.186279 0.069427 0.219299
0.200928 0.069305 0.219421
0.243073 0.064880 0.223175
0.271912 0.061279 0.229645
0.305389 0.077148 0.236176
0.338043 0.093231 0.242615
0.369843 0.107147 0.248871
0.400787 0.119781 0.254944
0.430939 0.132385 0.260864
0.460358 0.144684 0.266632
0.489044 0.156799 0.272247
0.517090 0.168854 0.277740
0.544495 0.180786 0.283142
0.571320 0.192688 0.288391
0.597565 0.204437 0.293579
0.623322 0.216064 0.298615
0.648590 0.227570 0.303558
0.673401 0.238861 0.308441
0.697845 0.250122 0.313202
0.721924 0.261261 0.317963
0.745728 0.272217 0.322632
0.769257 0.283081 0.327240
0.792542 0.293854 0.331818
0.815613 0.304626 0.336334
0.838531 0.315125 0.340851
0.861359 0.325562 0.345306
0.884094 0.335907 0.349762
0.901337 0.343628 0.353149
0.901855 0.343872 0.353241
0.185272 0.114410 0.219299
0.185272 0.114410 0.219299
0.185272 0.114410 0.219299
0.186279 0.114410 0.219299
0.200806 0.114410 0.219299
0.242828 0.111755 0.221130
0.281586 0.095642 0.231415
0.305389 0.088959 0.236176
0.338043 0.105774 0.242615
0.369843 0.123718 0.248871
0.400787 0.141876 0.254944
0.430939 0.159821 0.260864
0.460358 0.176727 0.266632
0.489044 0.191040 0.272247
0.517090 0.204254 0.277740
0.544495 0.217163 0.283142
0.571320 0.229736 0.288391
0.597565 0.241760 0.293579
0.623322 0.253601 0.298615
0.648590 0.265259 0.303558
0.673401 0.276703 0.308441
0.697845 0.287964 0.313202
0.721924 0.299194 0.317963
0.745728 0.310150 0.322632
0.769257 0.320953 0.327240
0.792542 0.331604 0.331818
0.815613 0.342133 0.336334
0.838531 0.352448 0.340851
0.861359 0.362671 0.345306
0.884094 0.372742 0.349762
0.901337 0.380371 0.353149
0.901855 0.380615 0.353241
0.185272 0.163788 0.219299
0.185272 0.163788 0.219299
0.185272 0.163788 0.219299
0.186279 0.163788 0.219299
0.200806 0.163788 0.219299
0.242676 0.161987 0.220459
0.290527 0.146240 0.230927
0.311768 0.124237 0.237488
0.338043 0.119904 0.242615
0.369843 0.135864 0.248871
0.400787 0.154480 0.254944
0.430939 0.173096 0.260864
0.460358 0.191650 0.266632
0.489044 0.210114 0.272247
0.517090 0.228394 0.277740
0.544495 0.246033 0.283142
0.571320 0.262451 0.288391
0.597565 0.276672 0.293579
0.623322 0.289398 0.298615
0.648590 0.301727 0.303558
0.673401 0.313751 0.308441
0.697845 0.325043 0.313202
0.721924 0.336029 0.317963
0.745728 0.346802 0.322632
0.769257 0.357391 0.327240
0.792542 0.367798 0.331818
0.815613 0.378052 0.336334
0.838531 0.388031 0.340851
0.861359 0.397980 0.345306
0.884094 0.407776 0.349762
0.901337 0.415161 0.353149
0.901855 0.415375 0.353241
0.185272 0.215515 0.219299
0.185272 0.215515 0.219299
0.185272 0.215515 0.219299
0.186279 0.215515 0.219299
0.200806 0.215515 0.219299
0.242310 0.214355 0.220032
0.292236 0.201263 0.228424
0.330383 0.181641 0.240753
0.340820 0.154175 0.243164
0.369843 0.153534 0.248871
0.400787 0.167023 0.254944
0.430939 0.185944 0.260864
0.460358 0.204712 0.266632
0.489044 0.223358 0.272247
0.517090 0.241821 0.277740
0.544495 0.259949 0.283142
0.571320 0.277740 0.288391
0.597565 0.295166 0.293579
0.623322 0.312225 0.298615
0.648590 0.328522 0.303558
0.673401 0.343872 0.308441
0.697845 0.357422 0.313202
0.721924 0.369324 0.317963
0.745728 0.380615 0.322632
0.769257 0.391541 0.327240
0.792542 0.402191 0.331818
0.815613 0.412140 0.336334
0.838531 0.421906 0.340851
0.861359 0.431519 0.345306
0.884094 0.441040 0.349762
0.901337 0.448242 0.353149
0.901855 0.448456 0.353241
0.185272 0.267853 0.219299
0.185272 0.267853 0.219299
0.185272 0.267853 0.219299
0.186279 0.267853 0.219299
0.200806 0.267853 0.219299
0.241852 0.267273 0.219696
0.290497 0.257629 0.225708
0.337158 0.236969 0.238708
0.365143 0.218933 0.248108
0.370575 0.186676 0.249023
0.400787 0.188171 0.254944
0.430939 0.198700 0.260864
0.460358 0.217621 0.266632
0.489044 0.236450 0.272247
0.517090 0.254974 0.277740
0.544495 0.273163 0.283142
0.571320 0.290955 0.288391
0.597565 0.308350 0.293579
0.623322 0.325287 0.298615
0.648590 0.341827 0.303558
0.673401 0.357910 0.308441
0.697845 0.373505 0.313202
0.721924 0.388733 0.317963
0.745728 0.403412 0.322632
0.769257 0.417267 0.327240
0.792542 0.430511 0.331818
0.815613 0.441711 0.336334
0.838531 0.452148 0.340851
0.861359 0.462250 0.345306
0.884094 0.472168 0.349762
0.901337 0.479614 0.353149
0.901855 0.479828 0.353241
0.185272 0.319244 0.219299
0.185272 0.319244 0.219299
0.185272 0.319244 0.219299
0.186279 0.319244 0.219299
0.200806 0.319244 0.219299
0.241364 0.319122 0.219391
0.288055 0.312744 0.223480
0.339203 0.292389 0.236298
0.376129 0.271820 0.249207
0.393585 0.250763 0.253540
0.401306 0.221680 0.255035
0.430939 0.223206 0.260864
0.460358 0.230804 0.266632
0.489044 0.249207 0.272247
0.517090 0.267853 0.277740
0.544495 0.286011 0.283142
0.571320 0.303802 0.288391
0.597565 0.321167 0.293579
0.623322 0.337982 0.298615
0.648590 0.354401 0.303558
0.673401 0.370331 0.308441
0.697845 0.385803 0.313202
0.721924 0.400818 0.317963
0.745728 0.415497 0.322632
0.769257 0.429810 0.327240
0.792542 0.443848 0.331818
0.815613 0.457611 0.336334
0.838531 0.471039 0.340851
0.861359 0.483887 0.345306
0.884094 0.496277 0.349762
0.901337 0.505402 0.353149
0.901855 0.505676 0.353241
0.185272 0.368500 0.219299
0.185272 0.368500 0.219299
0.185272 0.368500 0.219299
0.186279 0.368500 0.219299
0.200806 0.368500 0.219330
0.241241 0.368500 0.219299
0.285339 0.365112 0.221558
0.339172 0.346436 0.233673
0.381653 0.326477 0.246429
0.411957 0.308258 0.257935
0.420258 0.280640 0.258759
0.431183 0.256622 0.260925
0.460358 0.258209 0.266632
0.489044 0.263062 0.272247
0.517090 0.280426 0.277740
0.544495 0.298645 0.283142
0.571320 0.316315 0.288391
0.597565 0.333588 0.293579
0.623322 0.350342 0.298615
0.648590 0.366547 0.303558
0.673401 0.382324 0.308441
0.697845 0.397614 0.313202
0.721924 0.412506 0.317963
0.745728 0.427063 0.322632
0.769257 0.441193 0.327240
0.792542 0.455109 0.331818
0.815613 0.468750 0.336334
0.838531 0.482086 0.340851
0.861359 0.495178 0.345306
0.884094 0.508057 0.349762
0.901337 0.517792 0.353149
0.901855 0.518097 0.353241
0.185272 0.415039 0.219269
0.185272 0.415039 0.219269
0.185272 0.415039 0.219269
0.186279 0.415039 0.219269
0.200806 0.415039 0.219269
0.241241 0.415039 0.219299
0.284332 0.412994 0.220703
0.337769 0.397308 0.231293
0.384308 0.378265 0.243958
0.419678 0.359009 0.256531
0.444305 0.345062 0.263763
0.446259 0.309906 0.263855
0.460388 0.291199 0.266632
0.489044 0.292786 0.272247
0.517090 0.296173 0.277740
0.544495 0.310913 0.283142
0.571320 0.328613 0.288391
0.597565 0.345703 0.293579
0.623322 0.362244 0.298615
0.648590 0.378357 0.303558
0.673401 0.393982 0.308441
0.697845 0.409180 0.313202
0.721924 0.423859 0.317963
0.745728 0.438293 0.322632
0.769257 0.452271 0.327240
0.792542 0.466095 0.331818
0.815613 0.479523 0.336334
0.838531 0.492737 0.340851
0.861359 0.505737 0.345306
0.884094 0.518494 0.349762
0.901337 0.528168 0.353149
0.901855 0.528473 0.353241
0.185272 0.458832 0.219269
0.185272 0.458832 0.219269
0.185272 0.458832 0.219269
0.186279 0.458832 0.219269
0.200806 0.458832 0.219299
0.241241 0.458832 0.219299
0.283752 0.457428 0.220306
0.335449 0.445496 0.228668
0.385223 0.426666 0.241730
0.424713 0.408447 0.254150
0.454803 0.390747 0.265991
0.471191 0.374329 0.268738
0.471680 0.338440 0.268860
0.489044 0.325104 0.272247
0.517090 0.326660 0.277740
0.544495 0.329468 0.283142
0.571320 0.340515 0.288391
0.597565 0.357452 0.293579
0.623322 0.373901 0.298615
0.648590 0.389801 0.303558
0.673401 0.405273 0.308441
0.697845 0.420288 0.313202
0.721924 0.434906 0.317963
0.745728 0.449158 0.322632
0.769257 0.463013 0.327240
0.792542 0.476685 0.331818
0.815613 0.490021 0.336334
0.838531 0.503082 0.340851
0.861359 0.515991 0.345306
0.884094 0.528717 0.349762
0.901337 0.538208 0.353149
0.901855 0.538513 0.353241
0.185272 0.500122 0.219299
0.185272 0.500122 0.219299
0.185272 0.500122 0.219299
0.186279 0.500122 0.219299
0.200806 0.500122 0.219299
0.241241 0.500122 0.219299
0.283173 0.499359 0.219849
0.332672 0.490356 0.226471
0.384949 0.472595 0.239227
0.427795 0.455078 0.251648
0.461823 0.437531 0.263885
0.488068 0.423767 0.273285
0.495972 0.400055 0.273621
0.496552 0.365936 0.273743
0.517090 0.357758 0.277740
0.544495 0.359222 0.283142
0.571320 0.361511 0.288391
0.597565 0.369171 0.293579
0.623322 0.385071 0.298615
0.648590 0.400879 0.303558
0.673401 0.416229 0.308441
0.697845 0.431091 0.313202
0.721924 0.445557 0.317963
0.745728 0.459686 0.322632
0.769257 0.473480 0.327240
0.792542 0.486908 0.331818
0.815613 0.500214 0.336334
0.838531 0.513184 0.340851
0.861359 0.525909 0.345306
0.884094 0.538483 0.349762
0.901337 0.547974 0.353149
0.901855 0.548248 0.353241
0.185272 0.539185 0.219330
0.185272 0.539185 0.219330
0.185272 0.539185 0.219330
0.186279 0.539185 0.219299
0.200806 0.539185 0.219299
0.241211 0.539185 0.219299
0.282654 0.538788 0.219574
0.329834 0.532715 0.224182
0.383728 0.515869 0.236786
0.429382 0.498962 0.249237
0.466736 0.482147 0.261444
0.496277 0.465515 0.273315
0.518280 0.455383 0.278320
0.520233 0.424896 0.278381
0.520935 0.392365 0.278503
0.544495 0.388977 0.283142
0.571320 0.390411 0.288391
0.597565 0.392181 0.293579
0.623322 0.397034 0.298615
0.648590 0.411652 0.303558
0.673401 0.426849 0.308441
0.697845 0.441528 0.313202
0.721924 0.455902 0.317963
0.745728 0.469879 0.322632
0.769257 0.483582 0.327240
0.792542 0.496948 0.331818
0.815613 0.510071 0.336334
0.838531 0.522980 0.340851
0.861359 0.535583 0.345306
0.884094 0.548035 0.349762
0.901337 0.557404 0.353149
0.901855 0.557709 0.353241
0.185272 0.576294 0.219330
0.185272 0.576294 0.219330
0.185272 0.576294 0.219330
0.186279 0.576294 0.219330
0.200806 0.576294 0.219299
0.241241 0.576294 0.219299
0.282227 0.576233 0.219330
0.327271 0.572021 0.222626
0.381958 0.556732 0.234467
0.429871 0.540436 0.246918
0.469849 0.523926 0.259338
0.502777 0.508301 0.270966
0.528839 0.493774 0.281525
0.543762 0.480286 0.283020
0.544067 0.448944 0.283020
0.545685 0.418945 0.283356
0.571320 0.418915 0.288391
0.597565 0.420258 0.293579
0.623322 0.421600 0.298615
0.648590 0.424957 0.303558
0.673401 0.437164 0.308441
0.697845 0.451782 0.313202
0.721924 0.465973 0.317963
0.745728 0.479858 0.322632
0.769257 0.493378 0.327240
0.792542 0.506683 0.331818
0.815613 0.519714 0.336334
0.838531 0.532471 0.340851
0.861359 0.545013 0.345306
0.884094 0.557373 0.349762
0.901337 0.566650 0.353149
0.901855 0.566925 0.353241
0.185272 0.611511 0.219330
0.185272 0.611511 0.219330
0.185272 0.611511 0.219330
0.186279 0.611511 0.219330
0.200806 0.611511 0.219299
0.241241 0.611511 0.219299
0.282196 0.611511 0.219299
0.325409 0.609039 0.221313
0.379730 0.595337 0.232239
0.429535 0.579559 0.244720
0.471924 0.563782 0.257019
0.507355 0.548340 0.268890
0.536499 0.533295 0.280273
0.560211 0.523560 0.287384
0.567383 0.502472 0.287628
0.567444 0.472137 0.287628
0.571594 0.446503 0.288483
0.597565 0.447510 0.293579
0.623322 0.448761 0.298615
0.648590 0.450043 0.303558
0.673401 0.452667 0.308441
0.697845 0.461761 0.313202
0.721924 0.475769 0.317963
0.745728 0.489532 0.322632
0.769257 0.502930 0.327240
0.792542 0.516113 0.331818
0.815613 0.529022 0.336334
0.838531 0.541687 0.340851
0.861359 0.554138 0.345306
0.884094 0.566406 0.349762
0.901337 0.575684 0.353149
0.901855 0.575989 0.353241
0.185272 0.645081 0.219330
0.185272 0.645081 0.219330
0.185272 0.645081 0.219330
0.186279 0.645081 0.219330
0.200806 0.645081 0.219330
0.241211 0.645081 0.219299
0.282196 0.645081 0.219299
0.324677 0.643219 0.220886
0.377136 0.632141 0.230042
0.428650 0.616852 0.242493
0.473022 0.601715 0.254669
0.510742 0.586670 0.266632
0.542419 0.572052 0.278076
0.568451 0.557922 0.289001
0.588348 0.550262 0.292145
0.590424 0.523834 0.292175
0.590424 0.494568 0.292175
0.597748 0.473816 0.293610
0.623322 0.474915 0.298615
0.648590 0.476105 0.303558
0.673401 0.477386 0.308441
0.697845 0.479370 0.313202
0.721924 0.485779 0.317963
0.745728 0.498962 0.322632
0.769257 0.512268 0.327240
0.792542 0.525330 0.331818
0.815613 0.538116 0.336334
0.838531 0.550659 0.340851
0.861359 0.563019 0.345306
0.884094 0.575195 0.349762
0.901337 0.584442 0.353149
0.901855 0.584717 0.353241
0.185272 0.677124 0.219330
0.185272 0.677124 0.219330
0.185272 0.677124 0.219330
0.186279 0.677124 0.219299
0.200806 0.677124 0.219299
0.241241 0.677124 0.219299
0.282196 0.677124 0.219299
0.323944 0.675934 0.220337
0.374329 0.666901 0.228027
0.427185 0.652283 0.240326
0.473389 0.637756 0.252380
0.513092 0.623260 0.264252
0.546936 0.608856 0.275909
0.575623 0.595123 0.286896
0.599121 0.583893 0.295776
0.612427 0.571686 0.296570
0.612976 0.544373 0.296570
0.612976 0.516327 0.296570
0.623383 0.500031 0.298615
0.648590 0.501221 0.303558
0.673401 0.502380 0.308441
0.697845 0.503571 0.313202
0.721924 0.505066 0.317963
0.745728 0.509247 0.322632
0.769257 0.521362 0.327240
0.792542 0.534302 0.331818
0.815613 0.546997 0.336334
0.838531 0.559448 0.340851
0.861359 0.571686 0.345306
0.884094 0.583832 0.349762
0.901337 0.592896 0.353149
0.901855 0.593201 0.353241
0.185272 0.707855 0.219360
0.185272 0.707855 0.219360
0.185272 0.707855 0.219360
0.186279 0.707855 0.219360
0.200806 0.707855 0.219299
0.241241 0.707855 0.219299
0.282196 0.707855 0.219299
0.323395 0.707092 0.219971
0.371490 0.700287 0.225891
0.425354 0.686096 0.238190
0.473083 0.671814 0.250397
0.514618 0.657990 0.262085
0.550446 0.644012 0.273743
0.581085 0.630341 0.285034
0.606873 0.617126 0.295807
0.628693 0.610474 0.300781
0.635010 0.591187 0.300934
0.635132 0.564392 0.300934
0.635132 0.537323 0.300934
0.648590 0.525299 0.303558
0.673401 0.526459 0.308441
0.697845 0.527618 0.313202
0.721924 0.528809 0.317963
0.745728 0.529938 0.322632
0.769257 0.532990 0.327240
0.792542 0.543060 0.331818
0.815613 0.555664 0.336334
0.838531 0.568024 0.340851
0.861359 0.580200 0.345306
0.884094 0.592224 0.349762
0.901337 0.601227 0.353149
0.901855 0.601501 0.353241
0.185272 0.737366 0.219330
0.185272 0.737366 0.219330
0.185272 0.737366 0.219330
0.186279 0.737366 0.219330
0.200806 0.737366 0.219299
0.241272 0.737366 0.219299
0.282166 0.737366 0.219299
0.322815 0.737061 0.219574
0.368988 0.731964 0.224121
0.423309 0.718475 0.236115
0.472290 0.704651 0.248230
0.515381 0.691223 0.259949
0.553040 0.677612 0.271606
0.585541 0.664368 0.282867
0.613312 0.651123 0.293945
0.636810 0.639618 0.303528
0.654938 0.633301 0.305206
0.656982 0.609863 0.305206
0.656982 0.583862 0.305206
0.656982 0.557770 0.305206
0.673401 0.549683 0.308441
0.697845 0.550842 0.313202
0.721924 0.551971 0.317963
0.745728 0.553070 0.322632
0.769257 0.554138 0.327240
0.792542 0.556580 0.331818
0.815613 0.564270 0.336334
0.838531 0.576416 0.340851
0.861359 0.588470 0.345306
0.884094 0.600403 0.349762
0.901337 0.609375 0.353149
0.901855 0.609650 0.353241
0.185272 0.765747 0.219269
0.185272 0.765747 0.219269
0.185272 0.765747 0.219269
0.186279 0.765747 0.219299
0.200806 0.765747 0.219330
0.241241 0.765747 0.219299
0.282196 0.765747 0.219299
0.322327 0.765747 0.219299
0.366455 0.762329 0.222443
0.420990 0.749481 0.234131
0.471130 0.736145 0.246155
0.515625 0.723114 0.257751
0.554840 0.709930 0.269379
0.589111 0.696930 0.280701
0.618652 0.683899 0.291962
0.644104 0.671417 0.302582
0.666138 0.663879 0.308929
0.677826 0.652130 0.309418
0.678497 0.627960 0.309418
0.678497 0.602814 0.309418
0.678497 0.577606 0.309418
0.697845 0.573273 0.313202
0.721924 0.574341 0.317963
0.745728 0.575409 0.322632
0.769257 0.576508 0.327240
0.792542 0.577545 0.331818
0.815613 0.579437 0.336334
0.838531 0.585114 0.340851
0.861359 0.596558 0.345306
0.884094 0.608490 0.349762
0.901337 0.617310 0.353149
0.901855 0.617584 0.353241
0.185272 0.793182 0.219360
0.185272 0.793182 0.219360
0.185272 0.793182 0.219360
0.186279 0.793182 0.219360
0.200806 0.793182 0.219299
0.241211 0.793182 0.219299
0.282166 0.793182 0.219299
0.322266 0.793182 0.219299
0.364899 0.790802 0.221527
0.418365 0.779633 0.231934
0.469635 0.766449 0.244080
0.515411 0.753571 0.255859
0.555939 0.740570 0.267578
0.591827 0.728149 0.278717
0.623047 0.715454 0.289948
0.650208 0.703156 0.300720
0.673706 0.691864 0.310516
0.694122 0.687500 0.313538
0.699615 0.669678 0.313599
0.699738 0.645660 0.313599
0.699738 0.621368 0.313599
0.699799 0.597015 0.313599
0.721924 0.596039 0.317963
0.745728 0.597107 0.322632
0.769257 0.598114 0.327240
0.792542 0.599182 0.331818
0.815613 0.600189 0.336334
0.838531 0.601685 0.340851
0.861359 0.605438 0.345306
0.884094 0.616302 0.349762
0.901337 0.625183 0.353149
0.901855 0.625458 0.353241
0.185272 0.819763 0.219360
0.185272 0.819763 0.219360
0.185272 0.819763 0.219360
0.186279 0.819763 0.219360
0.200806 0.819763 0.219299
0.241211 0.819763 0.219299
0.282166 0.819763 0.219299
0.322296 0.819763 0.219299
0.364136 0.817963 0.221008
0.415710 0.808563 0.229950
0.467926 0.795715 0.242035
0.514801 0.783173 0.253784
0.556641 0.770477 0.265472
0.593811 0.757996 0.276886
0.626770 0.746063 0.287750
0.655304 0.733734 0.298828
0.680450 0.722137 0.309143
0.702332 0.713623 0.316650
0.718658 0.707428 0.317719
0.720734 0.686401 0.317719
0.720734 0.662964 0.317719
0.720734 0.639435 0.317719
0.722198 0.617310 0.318024
0.745728 0.618042 0.322632
0.769257 0.619080 0.327240
0.792542 0.620087 0.331818
0.815613 0.621124 0.336334
0.838531 0.622162 0.340851
0.861359 0.623260 0.345306
0.884094 0.626282 0.349762
0.901337 0.632751 0.353149
0.901855 0.633026 0.353241
0.185272 0.845581 0.219391
0.185272 0.845581 0.219391
0.185272 0.845581 0.219391
0.186279 0.845581 0.219360
0.200806 0.845581 0.219299
0.241241 0.845581 0.219299
0.282196 0.845581 0.219299
0.322266 0.845581 0.219299
0.363342 0.844299 0.220551
0.412872 0.836670 0.227905
0.465973 0.824036 0.240051
0.513855 0.811310 0.252167
0.556885 0.799316 0.263489
0.595276 0.786987 0.274963
0.629517 0.775269 0.285828
0.659943 0.763733 0.296448
0.686584 0.752258 0.306915
0.709869 0.741333 0.316742
0.730347 0.736023 0.321411
0.740631 0.724457 0.321808
0.741455 0.702667 0.321808
0.741455 0.679962 0.321808
0.741455 0.657104 0.321808
0.745728 0.638458 0.322632
0.769257 0.639404 0.327240
0.792542 0.640411 0.331818
0.815613 0.641510 0.336334
0.838531 0.642426 0.340851
0.861359 0.643433 0.345306
0.884094 0.644379 0.349762
0.901337 0.646088 0.353149
0.901855 0.646240 0.353241
0.185272 0.870728 0.219330
0.185272 0.870728 0.219330
0.185272 0.870728 0.219330
0.186279 0.870728 0.219330
0.200806 0.870728 0.219299
0.241272 0.870728 0.219299
0.282196 0.870728 0.219299
0.322266 0.870728 0.219299
0.362701 0.869843 0.220184
0.410217 0.863586 0.226318
0.463867 0.851532 0.238037
0.512634 0.839264 0.249939
0.556671 0.827301 0.261475
0.596283 0.815308 0.272888
0.631836 0.803741 0.283813
0.663574 0.792542 0.294312
0.691620 0.781158 0.304932
0.716217 0.769989 0.315247
0.737823 0.760590 0.323883
0.756927 0.757263 0.325836
0.761841 0.740601 0.325836
0.761963 0.718689 0.325836
0.761963 0.696564 0.325836
0.761963 0.674347 0.325836
0.769257 0.659210 0.327240
0.792542 0.660248 0.331818
0.815613 0.661194 0.336334
0.838531 0.662170 0.340851
0.861359 0.663147 0.345306
0.884094 0.664093 0.349762
0.901337 0.664764 0.353149
0.901855 0.664795 0.353241
0.185272 0.895355 0.219238
0.185272 0.895355 0.219238
0.185272 0.895355 0.219238
0.186279 0.895355 0.219238
0.200806 0.895355 0.219269
0.241211 0.895355 0.219299
0.282196 0.895355 0.219299
0.322266 0.895355 0.219299
0.362091 0.894897 0.219727
0.407684 0.890106 0.224518
0.461548 0.878326 0.236176
0.511230 0.866241 0.248047
0.556183 0.854462 0.259552
0.596924 0.843079 0.270599
0.633636 0.831665 0.281586
0.666626 0.820618 0.292175
0.695953 0.809326 0.302887
0.721741 0.798065 0.313507
0.744812 0.787476 0.323425
0.765350 0.781342 0.329102
0.780182 0.775116 0.329803
0.782288 0.755951 0.329803
0.782288 0.734436 0.329803
0.782288 0.712921 0.329803
0.782288 0.691223 0.329803
0.792542 0.679504 0.331818
0.815613 0.680450 0.336334
0.838531 0.681396 0.340851
0.861359 0.682373 0.345306
0.884094 0.683258 0.349762
0.901337 0.684021 0.353149
0.901855 0.684021 0.353241
0.185272 0.919434 0.219299
0.185272 0.919434 0.219299
0.185272 0.919434 0.219299
0.186279 0.919434 0.219299
0.200806 0.919434 0.219269
0.241272 0.919434 0.219299
0.282196 0.919434 0.219299
0.322327 0.919434 0.219299
0.361633 0.919250 0.219513
0.405365 0.915680 0.223083
0.459015 0.904663 0.234100
0.509521 0.892731 0.246002
0.555389 0.881195 0.257416
0.597076 0.869354 0.269073
0.634735 0.857788 0.280396
0.668854 0.847076 0.290833
0.699280 0.836121 0.301422
0.726593 0.825409 0.311707
0.750946 0.815002 0.321594
0.772675 0.805542 0.330597
0.792236 0.802063 0.333588
0.801544 0.790924 0.333771
0.802460 0.770966 0.333771
0.802460 0.750000 0.333771
0.802460 0.729004 0.333771
0.802521 0.707886 0.333771
0.815613 0.699219 0.336334
0.838531 0.700195 0.340851
0.861359 0.701111 0.345306
0.884094 0.702057 0.349762
0.901337 0.702759 0.353149
0.901855 0.702759 0.353241
0.185272 0.943207 0.219269
0.185272 0.943207 0.219269
0.185272 0.943207 0.219269
0.186279 0.943207 0.219269
0.200806 0.943207 0.219269
0.241272 0.943207 0.219299
0.282196 0.943207 0.219299
0.322266 0.943207 0.219299
0.361298 0.943207 0.219299
0.403717 0.940552 0.221985
0.456421 0.930450 0.232178
0.507660 0.918701 0.244049
0.554413 0.907288 0.255493
0.596985 0.895721 0.267059
0.635742 0.884705 0.277924
0.670868 0.874054 0.288452
0.702576 0.863312 0.299011
0.730835 0.852264 0.309814
