HW2_instructions/LUTs/Redish.CUBE
#Created by: Adobe Photoshop Export Color Lookup Plugin
TITLE "Red"
#LUT size
LUT_3D_SIZE 6
#data domain
DOMAIN_MIN 0.0 0.0 0.0
DOMAIN_MAX 1.0 1.0 1.0
#LUT data points
0.000000 0.000000 0.000000
0.481995 0.000000 0.000000
0.422516 0.000000 0.000000
0.724091 0.000000 0.000000
0.916321 0.000000 0.000000
1.000000 0.000000 0.000000
0.000000 0.382446 0.000000
0.481995 0.382446 0.000000
0.422516 0.382446 0.000000
0.724091 0.382446 0.000000
0.916321 0.382446 0.000000
1.000000 0.382446 0.000000
0.000000 0.471954 0.000000
0.481995 0.471954 0.000000
0.422516 0.471954 0.000000
0.724091 0.471954 0.000000
0.916321 0.471954 0.000000
1.000000 0.471954 0.000000
0.000000 0.376770 0.000000
0.481995 0.376770 0.000000
0.422516 0.376770 0.000000
0.724091 0.376770 0.000000
0.916321 0.376770 0.000000
1.000000 0.376770 0.000000
0.000000 0.578827 0.000000
0.481995 0.578827 0.000000
0.422516 0.578827 0.000000
0.724091 0.578827 0.000000
0.916321 0.578827 0.000000
1.000000 0.578827 0.000000
0.000000 1.000000 0.000000
0.481995 1.000000 0.000000
0.422516 1.000000 0.000000
0.724091 1.000000 0.000000
0.916321 1.000000 0.000000
1.000000 1.000000 0.000000
0.000000 0.000000 0.382446
0.481995 0.000000 0.382446
0.422516 0.000000 0.382446
0.724091 0.000000 0.382446
0.916321 0.000000 0.382446
1.000000 0.000000 0.382446
0.000000 0.382446 0.382446
0.481995 0.382446 0.382446
0.422516 0.382446 0.382446
0.724091 0.382446 0.382446
0.916321 0.382446 0.382446
1.000000 0.382446 0.382446
0.000000 0.471954 0.382446
0.481995 0.471954 0.382446
0.422516 0.471954 0.382446
0.724091 0.471954 0.382446
0.916321 0.471954 0.382446
1.000000 0.471954 0.382446
0.000000 0.376770 0.382446
0.481995 0.376770 0.382446
0.422516 0.376770 0.382446
0.724091 0.376770 0.382446
0.916321 0.376770 0.382446
1.000000 0.376770 0.382446
0.000000 0.578827 0.382446
0.481995 0.578827 0.382446
0.422516 0.578827 0.382446
0.724091 0.578827 0.382446
0.916321 0.578827 0.382446
1.000000 0.578827 0.382446
0.000000 1.000000 0.382446
0.481995 1.000000 0.382446
0.422516 1.000000 0.382446
0.724091 1.000000 0.382446
0.916321 1.000000 0.382446
1.000000 1.000000 0.382446
0.000000 0.000000 0.471954
0.481995 0.000000 0.471954
0.422516 0.000000 0.471954
0.724091 0.000000 0.471954
0.916321 0.000000 0.471954
1.000000 0.000000 0.471954
0.000000 0.382446 0.471954
0.481995 0.382446 0.471954
0.422516 0.382446 0.471954
0.724091 0.382446 0.471954
0.916321 0.382446 0.471954
1.000000 0.382446 0.471954
0.000000 0.471954 0.471954
0.481995 0.471954 0.471954
0.422516 0.471954 0.471954
0.724091 0.471954 0.471954
0.916321 0.471954 0.471954
1.000000 0.471954 0.471954
0.000000 0.376770 0.471954
0.481995 0.376770 0.471954
0.422516 0.376770 0.471954
0.724091 0.376770 0.471954
0.916321 0.376770 0.471954
1.000000 0.376770 0.471954
0.000000 0.578827 0.471954
0.481995 0.578827 0.471954
0.422516 0.578827 0.471954
0.724091 0.578827 0.471954
0.916321 0.578827 0.471954
1.000000 0.578827 0.471954
0.000000 1.000000 0.471954
0.481995 1.000000 0.471954
0.422516 1.000000 0.471954
0.724091 1.000000 0.471954
0.916321 1.000000 0.471954
1.000000 1.000000 0.471954
0.000000 0.000000 0.376770
0.481995 0.000000 0.376770
0.422516 0.000000 0.376770
0.724091 0.000000 0.376770
0.916321 0.000000 0.376770
1.000000 0.000000 0.376770
0.000000 0.382446 0.376770
0.481995 0.382446 0.376770
0.422516 0.382446 0.376770
0.724091 0.382446 0.376770
0.916321 0.382446 0.376770
1.000000 0.382446 0.376770
0.000000 0.471954 0.376770
0.481995 0.471954 0.376770
0.422516 0.471954 0.376770
0.724091 0.471954 0.376770
0.916321 0.471954 0.376770
1.000000 0.471954 0.376770
0.000000 0.376770 0.376770
0.481995 0.376770 0.376770
0.422516 0.376770 0.376770
0.724091 0.376770 0.376770
0.916321 0.376770 0.376770
1.000000 0.376770 0.376770
0.000000 0.578827 0.376770
0.481995 0.578827 0.376770
0.422516 0.578827 0.376770
0.724091 0.578827 0.376770
0.916321 0.578827 0.376770
1.000000 0.578827 0.376770
0.000000 1.000000 0.376770
0.481995 1.000000 0.376770
0.422516 1.000000 0.376770
0.724091 1.000000 0.376770
0.916321 1.000000 0.376770
1.000000 1.000000 0.376770
0.000000 0.000000 0.578827
0.481995 0.000000 0.578827
0.422516 0.000000 0.578827
0.724091 0.000000 0.578827
0.916321 0.000000 0.578827
1.000000 0.000000 0.578827
0.000000 0.382446 0.578827
0.481995 0.382446 0.578827
0.422516 0.382446 0.578827
0.724091 0.382446 0.578827
0.916321 0.382446 0.578827
1.000000 0.382446 0.578827
0.000000 0.471954 0.578827
0.481995 0.471954 0.578827
0.422516 0.471954 0.578827
0.724091 0.471954 0.578827
0.916321 0.471954 0.578827
1.000000 0.471954 0.578827
0.000000 0.376770 0.578827
0.481995 0.376770 0.578827
0.422516 0.376770 0.578827
0.724091 0.376770 0.578827
0.916321 0.376770 0.578827
1.000000 0.376770 0.578827
0.000000 0.578827 0.578827
0.481995 0.578827 0.578827
0.422516 0.578827 0.578827
0.724091 0.578827 0.578827
0.916321 0.578827 0.578827
1.000000 0.578827 0.578827
0.000000 1.000000 0.578827
0.481995 1.000000 0.578827
0.422516 1.000000 0.578827
0.724091 1.000000 0.578827
0.916321 1.000000 0.578827
1.000000 1.000000 0.578827
0.000000 0.000000 1.000000
0.481995 0.000000 1.000000
0.422516 0.000000 1.000000
0.724091 0.000000 1.000000
0.916321 0.000000 1.000000
1.000000 0.000000 1.000000
0.000000 0.382446 1.000000
0.481995 0.382446 1.000000
0.422516 0.382446 1.000000
0.724091 0.382446 1.000000
0.916321 0.382446 1.000000
1.000000 0.382446 1.000000
0.000000 0.471954 1.000000
0.481995 0.471954 1.000000
0.422516 0.471954 1.000000
0.724091 0.471954 1.000000
0.916321 0.471954 1.000000
1.000000 0.471954 1.000000
0.000000 0.376770 1.000000
0.481995 0.376770 1.000000
0.422516 0.376770 1.000000
0.724091 0.376770 1.000000
0.916321 0.376770 1.000000
1.000000 0.376770 1.000000
0.000000 0.578827 1.000000
0.481995 0.578827 1.000000
0.422516 0.578827 1.000000
0.724091 0.578827 1.000000
0.916321 0.578827 1.000000
1.000000 0.578827 1.000000
0.000000 1.000000 1.000000
0.481995 1.000000 1.000000
0.422516 1.000000 1.000000
0.724091 1.000000 1.000000
0.916321 1.000000 1.000000
1.000000 1.000000 1.000000
