HW2_instructions/LUTs/Redish.CUBE
#Created by: Adobe Photoshop Export Color Lookup Plugin
TITLE "Red"
#LUT size
LUT_3D_SIZE 16
#data domain
DOMAIN_MIN 0.0 0.0 0.0
DOMAIN_MAX 1.0 1.0 1.0
#LUT data points
0.000000 0.000000 0.000000
0.264587 0.000000 0.000000
0.446747 0.000000 0.000000
0.481995 0.000000 0.000000
0.416412 0.000000 0.000000
0.376343 0.000000 0.000000
0.422516 0.000000 0.000000
0.519135 0.000000 0.000000
0.626160 0.000000 0.000000
0.724091 0.000000 0.000000
0.805420 0.000000 0.000000
0.868835 0.000000 0.000000
0.916321 0.000000 0.000000
0.951355 0.000000 0.000000
0.977814 0.000000 0.000000
1.000000 0.000000 0.000000
0.000000 0.142456 0.000000
0.264587 0.142456 0.000000
0.446747 0.142456 0.000000
0.481995 0.142456 0.000000
0.416412 0.142456 0.000000
0.376343 0.142456 0.000000
0.422516 0.142456 0.000000
0.519135 0.142456 0.000000
0.626160 0.142456 0.000000
0.724091 0.142456 0.000000
0.805420 0.142456 0.000000
0.868835 0.142456 0.000000
0.916321 0.142456 0.000000
0.951355 0.142456 0.000000
0.977814 0.142456 0.000000
1.000000 0.142456 0.000000
0.000000 0.273651 0.000000
0.264587 0.273651 0.000000
0.446747 0.273651 0.000000
0.481995 0.273651 0.000000
0.416412 0.273651 0.000000
0.376343 0.273651 0.000000
0.422516 0.273651 0.000000
0.519135 0.273651 0.000000
0.626160 0.273651 0.000000
0.724091 0.273651 0.000000
0.805420 0.273651 0.000000
0.868835 0.273651 0.000000
0.916321 0.273651 0.000000
0.951355 0.273651 0.000000
0.977814 0.273651 0.000000
1.000000 0.273651 0.000000
0.000000 0.382446 0.000000
0.264587 0.382446 0.000000
0.446747 0.382446 0.000000
0.481995 0.382446 0.000000
0.416412 0.382446 0.000000
0.376343 0.382446 0.000000
0.422516 0.382446 0.000000
0.519135 0.382446 0.000000
0.626160 0.382446 0.000000
0.724091 0.382446 0.000000
0.805420 0.382446 0.000000
0.868835 0.382446 0.000000
0.916321 0.382446 0.000000
0.951355 0.382446 0.000000
0.977814 0.382446 0.000000
1.000000 0.382446 0.000000
0.000000 0.457581 0.000000
0.264587 0.457581 0.000000
0.446747 0.457581 0.000000
0.481995 0.457581 0.000000
0.416412 0.457581 0.000000
0.376343 0.457581 0.000000
0.422516 0.457581 0.000000
0.519135 0.457581 0.000000
0.626160 0.457581 0.000000
0.724091 0.457581 0.000000
0.805420 0.457581 0.000000
0.868835 0.457581 0.000000
0.916321 0.457581 0.000000
0.951355 0.457581 0.000000
0.977814 0.457581 0.000000
1.000000 0.457581 0.000000
0.000000 0.487885 0.000000
0.264587 0.487885 0.000000
0.446747 0.487885 0.000000
0.481995 0.487885 0.000000
0.416412 0.487885 0.000000
0.376343 0.487885 0.000000
0.422516 0.487885 0.000000
0.519135 0.487885 0.000000
0.626160 0.487885 0.000000
0.724091 0.487885 0.000000
0.805420 0.487885 0.000000
0.868835 0.487885 0.000000
0.916321 0.487885 0.000000
0.951355 0.487885 0.000000
0.977814 0.487885 0.000000
1.000000 0.487885 0.000000
0.000000 0.471954 0.000000
0.264587 0.471954 0.000000
0.446747 0.471954 0.000000
0.481995 0.471954 0.000000
0.416412 0.471954 0.000000
0.376343 0.471954 0.000000
0.422516 0.471954 0.000000
0.519135 0.471954 0.000000
0.626160 0.471954 0.000000
0.724091 0.471954 0.000000
0.805420 0.471954 0.000000
0.868835 0.471954 0.000000
0.916321 0.471954 0.000000
0.951355 0.471954 0.000000
0.977814 0.471954 0.000000
1.000000 0.471954 0.000000
0.000000 0.431396 0.000000
0.264587 0.431396 0.000000
0.446747 0.431396 0.000000
0.481995 0.431396 0.000000
0.416412 0.431396 0.000000
0.376343 0.431396 0.000000
0.422516 0.431396 0.000000
0.519135 0.431396 0.000000
0.626160 0.431396 0.000000
0.724091 0.431396 0.000000
0.805420 0.431396 0.000000
0.868835 0.431396 0.000000
0.916321 0.431396 0.000000
0.951355 0.431396 0.000000
0.977814 0.431396 0.000000
1.000000 0.431396 0.000000
0.000000 0.391327 0.000000
0.264587 0.391327 0.000000
0.446747 0.391327 0.000000
0.481995 0.391327 0.000000
0.416412 0.391327 0.000000
0.376343 0.391327 0.000000
0.422516 0.391327 0.000000
0.519135 0.391327 0.000000
0.626160 0.391327 0.000000
0.724091 0.391327 0.000000
0.805420 0.391327 0.000000
0.868835 0.391327 0.000000
0.916321 0.391327 0.000000
0.951355 0.391327 0.000000
0.977814 0.391327 0.000000
1.000000 0.391327 0.000000
0.000000 0.376770 0.000000
0.264587 0.376770 0.000000
0.446747 0.376770 0.000000
0.481995 0.376770 0.000000
0.416412 0.376770 0.000000
0.376343 0.376770 0.000000
0.422516 0.376770 0.000000
0.519135 0.376770 0.000000
0.626160 0.376770 0.000000
0.724091 0.376770 0.000000
0.805420 0.376770 0.000000
0.868835 0.376770 0.000000
0.916321 0.376770 0.000000
0.951355 0.376770 0.000000
0.977814 0.376770 0.000000
1.000000 0.376770 0.000000
0.000000 0.406250 0.000000
0.264587 0.406250 0.000000
0.446747 0.406250 0.000000
0.481995 0.406250 0.000000
0.416412 0.406250 0.000000
0.376343 0.406250 0.000000
0.422516 0.406250 0.000000
0.519135 0.406250 0.000000
0.626160 0.406250 0.000000
0.724091 0.406250 0.000000
0.805420 0.406250 0.000000
0.868835 0.406250 0.000000
0.916321 0.406250 0.000000
0.951355 0.406250 0.000000
0.977814 0.406250 0.000000
1.000000 0.406250 0.000000
0.000000 0.476318 0.000000
0.264587 0.476318 0.000000
0.446747 0.476318 0.000000
0.481995 0.476318 0.000000
0.416412 0.476318 0.000000
0.376343 0.476318 0.000000
0.422516 0.476318 0.000000
0.519135 0.476318 0.000000
0.626160 0.476318 0.000000
0.724091 0.476318 0.000000
0.805420 0.476318 0.000000
0.868835 0.476318 0.000000
0.916321 0.476318 0.000000
0.951355 0.476318 0.000000
0.977814 0.476318 0.000000
1.000000 0.476318 0.000000
0.000000 0.578827 0.000000
0.264587 0.578827 0.000000
0.446747 0.578827 0.000000
0.481995 0.578827 0.000000
0.416412 0.578827 0.000000
0.376343 0.578827 0.000000
0.422516 0.578827 0.000000
0.519135 0.578827 0.000000
0.626160 0.578827 0.000000
0.724091 0.578827 0.000000
0.805420 0.578827 0.000000
0.868835 0.578827 0.000000
0.916321 0.578827 0.000000
0.951355 0.578827 0.000000
0.977814 0.578827 0.000000
1.000000 0.578827 0.000000
0.000000 0.705719 0.000000
0.264587 0.705719 0.000000
0.446747 0.705719 0.000000
0.481995 0.705719 0.000000
0.416412 0.705719 0.000000
0.376343 0.705719 0.000000
0.422516 0.705719 0.000000
0.519135 0.705719 0.000000
0.626160 0.705719 0.000000
0.724091 0.705719 0.000000
0.805420 0.705719 0.000000
0.868835 0.705719 0.000000
0.916321 0.705719 0.000000
0.951355 0.705719 0.000000
0.977814 0.705719 0.000000
1.000000 0.705719 0.000000
0.000000 0.848755 0.000000
0.264587 0.848755 0.000000
0.446747 0.848755 0.000000
0.481995 0.848755 0.000000
0.416412 0.848755 0.000000
0.376343 0.848755 0.000000
0.422516 0.848755 0.000000
0.519135 0.848755 0.000000
0.626160 0.848755 0.000000
0.724091 0.848755 0.000000
0.805420 0.848755 0.000000
0.868835 0.848755 0.000000
0.916321 0.848755 0.000000
0.951355 0.848755 0.000000
0.977814 0.848755 0.000000
1.000000 0.848755 0.000000
0.000000 1.000000 0.000000
0.264587 1.000000 0.000000
0.446747 1.000000 0.000000
0.481995 1.000000 0.000000
0.416412 1.000000 0.000000
0.376343 1.000000 0.000000
0.422516 1.000000 0.000000
0.519135 1.000000 0.000000
0.626160 1.000000 0.000000
0.724091 1.000000 0.000000
0.805420 1.000000 0.000000
0.868835 1.000000 0.000000
0.916321 1.000000 0.000000
0.951355 1.000000 0.000000
0.977814 1.000000 0.000000
1.000000 1.000000 0.000000
0.000000 0.000000 0.142456
0.264587 0.000000 0.142456
0.446747 0.000000 0.142456
0.481995 0.000000 0.142456
0.416412 0.000000 0.142456
0.376343 0.000000 0.142456
0.422516 0.000000 0.142456
0.519135 0.000000 0.142456
0.626160 0.000000 0.142456
0.724091 0.000000 0.142456
0.805420 0.000000 0.142456
0.868835 0.000000 0.142456
0.916321 0.000000 0.142456
0.951355 0.000000 0.142456
0.977814 0.000000 0.142456
1.000000 0.000000 0.142456
0.000000 0.142456 0.142456
0.264587 0.142456 0.142456
0.446747 0.142456 0.142456
0.481995 0.142456 0.142456
0.416412 0.142456 0.142456
0.376343 0.142456 0.142456
0.422516 0.142456 0.142456
0.519135 0.142456 0.142456
0.626160 0.142456 0.142456
0.724091 0.142456 0.142456
0.805420 0.142456 0.142456
0.868835 0.142456 0.142456
0.916321 0.142456 0.142456
0.951355 0.142456 0.142456
0.977814 0.142456 0.142456
1.000000 0.142456 0.142456
0.000000 0.273651 0.142456
0.264587 0.273651 0.142456
0.446747 0.273651 0.142456
0.481995 0.273651 0.142456
0.416412 0.273651 0.142456
0.376343 0.273651 0.142456
0.422516 0.273651 0.142456
0.519135 0.273651 0.142456
0.626160 0.273651 0.142456
0.724091 0.273651 0.142456
0.805420 0.273651 0.142456
0.868835 0.273651 0.142456
0.916321 0.273651 0.142456
0.951355 0.273651 0.142456
0.977814 0.273651 0.142456
1.000000 0.273651 0.142456
0.000000 0.382446 0.142456
0.264587 0.382446 0.142456
0.446747 0.382446 0.142456
0.481995 0.382446 0.142456
0.416412 0.382446 0.142456
0.376343 0.382446 0.142456
0.422516 0.382446 0.142456
0.519135 0.382446 0.142456
0.626160 0.382446 0.142456
0.724091 0.382446 0.142456
0.805420 0.382446 0.142456
0.868835 0.382446 0.142456
0.916321 0.382446 0.142456
0.951355 0.382446 0.142456
0.977814 0.382446 0.142456
1.000000 0.382446 0.142456
0.000000 0.457581 0.142456
0.264587 0.457581 0.142456
0.446747 0.457581 0.142456
0.481995 0.457581 0.142456
0.416412 0.457581 0.142456
0.376343 0.457581 0.142456
0.422516 0.457581 0.142456
0.519135 0.457581 0.142456
0.626160 0.457581 0.142456
0.724091 0.457581 0.142456
0.805420 0.457581 0.142456
0.868835 0.457581 0.142456
0.916321 0.457581 0.142456
0.951355 0.457581 0.142456
0.977814 0.457581 0.142456
1.000000 0.457581 0.142456
0.000000 0.487885 0.142456
0.264587 0.487885 0.142456
0.446747 0.487885 0.142456
0.481995 0.487885 0.142456
0.416412 0.487885 0.142456
0.376343 0.487885 0.142456
0.422516 0.487885 0.142456
0.519135 0.487885 0.142456
0.626160 0.487885 0.142456
0.724091 0.487885 0.142456
0.805420 0.487885 0.142456
0.868835 0.487885 0.142456
0.916321 0.487885 0.142456
0.951355 0.487885 0.142456
0.977814 0.487885 0.142456
1.000000 0.487885 0.142456
0.000000 0.471954 0.142456
0.264587 0.471954 0.142456
0.446747 0.471954 0.142456
0.481995 0.471954 0.142456
0.416412 0.471954 0.142456
0.376343 0.471954 0.142456
0.422516 0.471954 0.142456
0.519135 0.471954 0.142456
0.626160 0.471954 0.142456
0.724091 0.471954 0.142456
0.805420 0.471954 0.142456
0.868835 0.471954 0.142456
0.916321 0.471954 0.142456
0.951355 0.471954 0.142456
0.977814 0.471954 0.142456
1.000000 0.471954 0.142456
0.000000 0.431396 0.142456
0.264587 0.431396 0.142456
0.446747 0.431396 0.142456
0.481995 0.431396 0.142456
0.416412 0.431396 0.142456
0.376343 0.431396 0.142456
0.422516 0.431396 0.142456
0.519135 0.431396 0.142456
0.626160 0.431396 0.142456
0.724091 0.431396 0.142456
0.805420 0.431396 0.142456
0.868835 0.431396 0.142456
0.916321 0.431396 0.142456
0.951355 0.431396 0.142456
0.977814 0.431396 0.142456
1.000000 0.431396 0.142456
0.000000 0.391327 0.142456
0.264587 0.391327 0.142456
0.446747 0.391327 0.142456
0.481995 0.391327 0.142456
0.416412 0.391327 0.142456
0.376343 0.391327 0.142456
0.422516 0.391327 0.142456
0.519135 0.391327 0.142456
0.626160 0.391327 0.142456
0.724091 0.391327 0.142456
0.805420 0.391327 0.142456
0.868835 0.391327 0.142456
0.916321 0.391327 0.142456
0.951355 0.391327 0.142456
0.977814 0.391327 0.142456
1.000000 0.391327 0.142456
0.000000 0.376770 0.142456
0.264587 0.376770 0.142456
0.446747 0.376770 0.142456
0.481995 0.376770 0.142456
0.416412 0.376770 0.142456
0.376343 0.376770 0.142456
0.422516 0.376770 0.142456
0.519135 0.376770 0.142456
0.626160 0.376770 0.142456
0.724091 0.376770 0.142456
0.805420 0.376770 0.142456
0.868835 0.376770 0.142456
0.916321 0.376770 0.142456
0.951355 0.376770 0.142456
0.977814 0.376770 0.142456
1.000000 0.376770 0.142456
0.000000 0.406250 0.142456
0.264587 0.406250 0.142456
0.446747 0.406250 0.142456
0.481995 0.406250 0.142456
0.416412 0.406250 0.142456
0.376343 0.406250 0.142456
0.422516 0.406250 0.142456
0.519135 0.406250 0.142456
0.626160 0.406250 0.142456
0.724091 0.406250 0.142456
0.805420 0.406250 0.142456
0.868835 0.406250 0.142456
0.916321 0.406250 0.142456
0.951355 0.406250 0.142456
0.977814 0.406250 0.142456
1.000000 0.406250 0.142456
0.000000 0.476318 0.142456
0.264587 0.476318 0.142456
0.446747 0.476318 0.142456
0.481995 0.476318 0.142456
0.416412 0.476318 0.142456
0.376343 0.476318 0.142456
0.422516 0.476318 0.142456
0.519135 0.476318 0.142456
0.626160 0.476318 0.142456
0.724091 0.476318 0.142456
0.805420 0.476318 0.142456
0.868835 0.476318 0.142456
0.916321 0.476318 0.142456
0.951355 0.476318 0.142456
0.977814 0.476318 0.142456
1.000000 0.476318 0.142456
0.000000 0.578827 0.142456
0.264587 0.578827 0.142456
0.446747 0.578827 0.142456
0.481995 0.578827 0.142456
0.416412 0.578827 0.142456
0.376343 0.578827 0.142456
0.422516 0.578827 0.142456
0.519135 0.578827 0.142456
0.626160 0.578827 0.142456
0.724091 0.578827 0.142456
0.805420 0.578827 0.142456
0.868835 0.578827 0.142456
0.916321 0.578827 0.142456
0.951355 0.578827 0.142456
0.977814 0.578827 0.142456
1.000000 0.578827 0.142456
0.000000 0.705719 0.142456
0.264587 0.705719 0.142456
0.446747 0.705719 0.142456
0.481995 0.705719 0.142456
0.416412 0.705719 0.142456
0.376343 0.705719 0.142456
0.422516 0.705719 0.142456
0.519135 0.705719 0.142456
0.626160 0.705719 0.142456
0.724091 0.705719 0.142456
0.805420 0.705719 0.142456
0.868835 0.705719 0.142456
0.916321 0.705719 0.142456
0.951355 0.705719 0.142456
0.977814 0.705719 0.142456
1.000000 0.705719 0.142456
0.000000 0.848755 0.142456
0.264587 0.848755 0.142456
0.446747 0.848755 0.142456
0.481995 0.848755 0.142456
0.416412 0.848755 0.142456
0.376343 0.848755 0.142456
0.422516 0.848755 0.142456
0.519135 0.848755 0.142456
0.626160 0.848755 0.142456
0.724091 0.848755 0.142456
0.805420 0.848755 0.142456
0.868835 0.848755 0.142456
0.916321 0.848755 0.142456
0.951355 0.848755 0.142456
0.977814 0.848755 0.142456
1.000000 0.848755 0.142456
0.000000 1.000000 0.142456
0.264587 1.000000 0.142456
0.446747 1.000000 0.142456
0.481995 1.000000 0.142456
0.416412 1.000000 0.142456
0.376343 1.000000 0.142456
0.422516 1.000000 0.142456
0.519135 1.000000 0.142456
0.626160 1.000000 0.142456
0.724091 1.000000 0.142456
0.805420 1.000000 0.142456
0.868835 1.000000 0.142456
0.916321 1.000000 0.142456
0.951355 1.000000 0.142456
0.977814 1.000000 0.142456
1.000000 1.000000 0.142456
0.000000 0.000000 0.273651
0.264587 0.000000 0.273651
0.446747 0.000000 0.273651
0.481995 0.000000 0.273651
0.416412 0.000000 0.273651
0.376343 0.000000 0.273651
0.422516 0.000000 0.273651
0.519135 0.000000 0.273651
0.626160 0.000000 0.273651
0.724091 0.000000 0.273651
0.805420 0.000000 0.273651
0.868835 0.000000 0.273651
0.916321 0.000000 0.273651
0.951355 0.000000 0.273651
0.977814 0.000000 0.273651
1.000000 0.000000 0.273651
0.000000 0.142456 0.273651
0.264587 0.142456 0.273651
0.446747 0.142456 0.273651
0.481995 0.142456 0.273651
0.416412 0.142456 0.273651
0.376343 0.142456 0.273651
0.422516 0.142456 0.273651
0.519135 0.142456 0.273651
0.626160 0.142456 0.273651
0.724091 0.142456 0.273651
0.805420 0.142456 0.273651
0.868835 0.142456 0.273651
0.916321 0.142456 0.273651
0.951355 0.142456 0.273651
0.977814 0.142456 0.273651
1.000000 0.142456 0.273651
0.000000 0.273651 0.273651
0.264587 0.273651 0.273651
0.446747 0.273651 0.273651
0.481995 0.273651 0.273651
0.416412 0.273651 0.273651
0.376343 0.273651 0.273651
0.422516 0.273651 0.273651
0.519135 0.273651 0.273651
0.626160 0.273651 0.273651
0.724091 0.273651 0.273651
0.805420 0.273651 0.273651
0.868835 0.273651 0.273651
0.916321 0.273651 0.273651
0.951355 0.273651 0.273651
0.977814 0.273651 0.273651
1.000000 0.273651 0.273651
0.000000 0.382446 0.273651
0.264587 0.382446 0.273651
0.446747 0.382446 0.273651
0.481995 0.382446 0.273651
0.416412 0.382446 0.273651
0.376343 0.382446 0.273651
0.422516 0.382446 0.273651
0.519135 0.382446 0.273651
0.626160 0.382446 0.273651
0.724091 0.382446 0.273651
0.805420 0.382446 0.273651
0.868835 0.382446 0.273651
0.916321 0.382446 0.273651
0.951355 0.382446 0.273651
0.977814 0.382446 0.273651
1.000000 0.382446 0.273651
0.000000 0.457581 0.273651
0.264587 0.457581 0.273651
0.446747 0.457581 0.273651
0.481995 0.457581 0.273651
0.416412 0.457581 0.273651
0.376343 0.457581 0.273651
0.422516 0.457581 0.273651
0.519135 0.457581 0.273651
0.626160 0.457581 0.273651
0.724091 0.457581 0.273651
0.805420 0.457581 0.273651
0.868835 0.457581 0.273651
0.916321 0.457581 0.273651
0.951355 0.457581 0.273651
0.977814 0.457581 0.273651
1.000000 0.457581 0.273651
0.000000 0.487885 0.273651
0.264587 0.487885 0.273651
0.446747 0.487885 0.273651
0.481995 0.487885 0.273651
0.416412 0.487885 0.273651
0.376343 0.487885 0.273651
0.422516 0.487885 0.273651
0.519135 0.487885 0.273651
0.626160 0.487885 0.273651
0.724091 0.487885 0.273651
0.805420 0.487885 0.273651
0.868835 0.487885 0.273651
0.916321 0.487885 0.273651
0.951355 0.487885 0.273651
0.977814 0.487885 0.273651
1.000000 0.487885 0.273651
0.000000 0.471954 0.273651
0.264587 0.471954 0.273651
0.446747 0.471954 0.273651
0.481995 0.471954 0.273651
0.416412 0.471954 0.273651
0.376343 0.471954 0.273651
0.422516 0.471954 0.273651
0.519135 0.471954 0.273651
0.626160 0.471954 0.273651
0.724091 0.471954 0.273651
0.805420 0.471954 0.273651
0.868835 0.471954 0.273651
0.916321 0.471954 0.273651
0.951355 0.471954 0.273651
0.977814 0.471954 0.273651
1.000000 0.471954 0.273651
0.000000 0.431396 0.273651
0.264587 0.431396 0.273651
0.446747 0.431396 0.273651
0.481995 0.431396 0.273651
0.416412 0.431396 0.273651
0.376343 0.431396 0.273651
0.422516 0.431396 0.273651
0.519135 0.431396 0.273651
0.626160 0.431396 0.273651
0.724091 0.431396 0.273651
0.805420 0.431396 0.273651
0.868835 0.431396 0.273651
0.916321 0.431396 0.273651
0.951355 0.431396 0.273651
0.977814 0.431396 0.273651
1.000000 0.431396 0.273651
0.000000 0.391327 0.273651
0.264587 0.391327 0.273651
0.446747 0.391327 0.273651
0.481995 0.391327 0.273651
0.416412 0.391327 0.273651
0.376343 0.391327 0.273651
0.422516 0.391327 0.273651
0.519135 0.391327 0.273651
0.626160 0.391327 0.273651
0.724091 0.391327 0.273651
0.805420 0.391327 0.273651
0.868835 0.391327 0.273651
0.916321 0.391327 0.273651
0.951355 0.391327 0.273651
0.977814 0.391327 0.273651
1.000000 0.391327 0.273651
0.000000 0.376770 0.273651
0.264587 0.376770 0.273651
0.446747 0.376770 0.273651
0.481995 0.376770 0.273651
0.416412 0.376770 0.273651
0.376343 0.376770 0.273651
0.422516 0.376770 0.273651
0.519135 0.376770 0.273651
0.626160 0.376770 0.273651
0.724091 0.376770 0.273651
0.805420 0.376770 0.273651
0.868835 0.376770 0.273651
0.916321 0.376770 0.273651
0.951355 0.376770 0.273651
0.977814 0.376770 0.273651
1.000000 0.376770 0.273651
0.000000 0.406250 0.273651
0.264587 0.406250 0.273651
0.446747 0.406250 0.273651
0.481995 0.406250 0.273651
0.416412 0.406250 0.273651
0.376343 0.406250 0.273651
0.422516 0.406250 0.273651
0.519135 0.406250 0.273651
0.626160 0.406250 0.273651
0.724091 0.406250 0.273651
0.805420 0.406250 0.273651
0.868835 0.406250 0.273651
0.916321 0.406250 0.273651
0.951355 0.406250 0.273651
0.977814 0.406250 0.273651
1.000000 0.406250 0.273651
0.000000 0.476318 0.273651
0.264587 0.476318 0.273651
0.446747 0.476318 0.273651
0.481995 0.476318 0.273651
0.416412 0.476318 0.273651
0.376343 0.476318 0.273651
0.422516 0.476318 0.273651
0.519135 0.476318 0.273651
0.626160 0.476318 0.273651
0.724091 0.476318 0.273651
0.805420 0.476318 0.273651
0.868835 0.476318 0.273651
0.916321 0.476318 0.273651
0.951355 0.476318 0.273651
0.977814 0.476318 0.273651
1.000000 0.476318 0.273651
0.000000 0.578827 0.273651
0.264587 0.578827 0.273651
0.446747 0.578827 0.273651
0.481995 0.578827 0.273651
0.416412 0.578827 0.273651
0.376343 0.578827 0.273651
0.422516 0.578827 0.273651
0.519135 0.578827 0.273651
0.626160 0.578827 0.273651
0.724091 0.578827 0.273651
0.805420 0.578827 0.273651
0.868835 0.578827 0.273651
0.916321 0.578827 0.273651
0.951355 0.578827 0.273651
0.977814 0.578827 0.273651
1.000000 0.578827 0.273651
0.000000 0.705719 0.273651
0.264587 0.705719 0.273651
0.446747 0.705719 0.273651
0.481995 0.705719 0.273651
0.416412 0.705719 0.273651
0.376343 0.705719 0.273651
0.422516 0.705719 0.273651
0.519135 0.705719 0.273651
0.626160 0.705719 0.273651
0.724091 0.705719 0.273651
0.805420 0.705719 0.273651
0.868835 0.705719 0.273651
0.916321 0.705719 0.273651
0.951355 0.705719 0.273651
0.977814 0.705719 0.273651
1.000000 0.705719 0.273651
0.000000 0.848755 0.273651
0.264587 0.848755 0.273651
0.446747 0.848755 0.273651
0.481995 0.848755 0.273651
0.416412 0.848755 0.273651
0.376343 0.848755 0.273651
0.422516 0.848755 0.273651
0.519135 0.848755 0.273651
0.626160 0.848755 0.273651
0.724091 0.848755 0.273651
0.805420 0.848755 0.273651
0.868835 0.848755 0.273651
0.916321 0.848755 0.273651
0.951355 0.848755 0.273651
0.977814 0.848755 0.273651
1.000000 0.848755 0.273651
0.000000 1.000000 0.273651
0.264587 1.000000 0.273651
0.446747 1.000000 0.273651
0.481995 1.000000 0.273651
0.416412 1.000000 0.273651
0.376343 1.000000 0.273651
0.422516 1.000000 0.273651
0.519135 1.000000 0.273651
0.626160 1.000000 0.273651
0.724091 1.000000 0.273651
0.805420 1.000000 0.273651
0.868835 1.000000 0.273651
0.916321 1.000000 0.273651
0.951355 1.000000 0.273651
0.977814 1.000000 0.273651
1.000000 1.000000 0.273651
0.000000 0.000000 0.382446
0.264587 0.000000 0.382446
0.446747 0.000000 0.382446
0.481995 0.000000 0.382446
0.416412 0.000000 0.382446
0.376343 0.000000 0.382446
0.422516 0.000000 0.382446
0.519135 0.000000 0.382446
0.626160 0.000000 0.382446
0.724091 0.000000 0.382446
0.805420 0.000000 0.382446
0.868835 0.000000 0.382446
0.916321 0.000000 0.382446
0.951355 0.000000 0.382446
0.977814 0.000000 0.382446
1.000000 0.000000 0.382446
0.000000 0.142456 0.382446
0.264587 0.142456 0.382446
0.446747 0.142456 0.382446
0.481995 0.142456 0.382446
0.416412 0.142456 0.382446
0.376343 0.142456 0.382446
0.422516 0.142456 0.382446
0.519135 0.142456 0.382446
0.626160 0.142456 0.382446
0.724091 0.142456 0.382446
0.805420 0.142456 0.382446
0.868835 0.142456 0.382446
0.916321 0.142456 0.382446
0.951355 0.142456 0.382446
0.977814 0.142456 0.382446
1.000000 0.142456 0.382446
0.000000 0.273651 0.382446
0.264587 0.273651 0.382446
0.446747 0.273651 0.382446
0.481995 0.273651 0.382446
0.416412 0.273651 0.382446
0.376343 0.273651 0.382446
0.422516 0.273651 0.382446
0.519135 0.273651 0.382446
0.626160 0.273651 0.382446
0.724091 0.273651 0.382446
0.805420 0.273651 0.382446
0.868835 0.273651 0.382446
0.916321 0.273651 0.382446
0.951355 0.273651 0.382446
0.977814 0.273651 0.382446
1.000000 0.273651 0.382446
0.000000 0.382446 0.382446
0.264587 0.382446 0.382446
0.446747 0.382446 0.382446
0.481995 0.382446 0.382446
0.416412 0.382446 0.382446
0.376343 0.382446 0.382446
0.422516 0.382446 0.382446
0.519135 0.382446 0.382446
0.626160 0.382446 0.382446
0.724091 0.382446 0.382446
0.805420 0.382446 0.382446
0.868835 0.382446 0.382446
0.916321 0.382446 0.382446
0.951355 0.382446 0.382446
0.977814 0.382446 0.382446
1.000000 0.382446 0.382446
0.000000 0.457581 0.382446
0.264587 0.457581 0.382446
0.446747 0.457581 0.382446
0.481995 0.457581 0.382446
0.416412 0.457581 0.382446
0.376343 0.457581 0.382446
0.422516 0.457581 0.382446
0.519135 0.457581 0.382446
0.626160 0.457581 0.382446
0.724091 0.457581 0.382446
0.805420 0.457581 0.382446
0.868835 0.457581 0.382446
0.916321 0.457581 0.382446
0.951355 0.457581 0.382446
0.977814 0.457581 0.382446
1.000000 0.457581 0.382446
0.000000 0.487885 0.382446
0.264587 0.487885 0.382446
0.446747 0.487885 0.382446
0.481995 0.487885 0.382446
0.416412 0.487885 0.382446
0.376343 0.487885 0.382446
0.422516 0.487885 0.382446
0.519135 0.487885 0.382446
0.626160 0.487885 0.382446
0.724091 0.487885 0.382446
0.805420 0.487885 0.382446
0.868835 0.487885 0.382446
0.916321 0.487885 0.382446
0.951355 0.487885 0.382446
0.977814 0.487885 0.382446
1.000000 0.487885 0.382446
0.000000 0.471954 0.382446
0.264587 0.471954 0.382446
0.446747 0.471954 0.382446
0.481995 0.471954 0.382446
0.416412 0.471954 0.382446
0.376343 0.471954 0.382446
0.422516 0.471954 0.382446
0.519135 0.471954 0.382446
0.626160 0.471954 0.382446
0.724091 0.471954 0.382446
0.805420 0.471954 0.382446
0.868835 0.471954 0.382446
0.916321 0.471954 0.382446
0.951355 0.471954 0.382446
0.977814 0.471954 0.382446
1.000000 0.471954 0.382446
0.000000 0.431396 0.382446
0.264587 0.431396 0.382446
